( Made using CamBam - http://www.cambam.co.uk )
( TL084multipcb 1/1/2015 1:24:17 PM )
( T1 : 0.04 )
( T2 : 0.031 )
( T3 : 0.0039 )
G21 G90 G64 G40
G0 Z0.125
( T1 : 0.04 )
T1 M6
( .04 Drills )
G17
M3 S1000
G0 X0.232 Y0.5802
G98
G81 X0.232 Y0.5802 Z-0.075 R0.125 F20.0
G81 X0.1292 Y0.4454 Z-0.075
G81 X0.2333 Y0.3223 Z-0.075
G81 X0.1292 Y0.1879 Z-0.075
G81 X0.0772 Y0.8183 Z-0.075
G81 X0.1406 Y1.0612 Z-0.075
G81 Y1.1542 Z-0.075
G81 Y1.2472 Z-0.075
G81 Y1.3402 Z-0.075
G81 Y1.4332 Z-0.075
G81 X0.2336 Z-0.075
G81 Y1.3402 Z-0.075
G81 Y1.2472 Z-0.075
G81 Y1.1542 Z-0.075
G81 Y1.0612 Z-0.075
G81 X0.0774 Y1.6548 Z-0.075
G81 X0.2325 Y1.8923 Z-0.075
G81 X0.1285 Y2.0274 Z-0.075
G81 X0.2325 Y2.1513 Z-0.075
G81 X0.1285 Y2.2847 Z-0.075
G81 X2.0306 Y2.4543 Z-0.075
G81 X2.2268 Y2.2759 Z-0.075
G81 X2.123 Y2.1501 Z-0.075
G81 X2.2268 Y2.0264 Z-0.075
G81 X2.123 Y1.8933 Z-0.075
G81 X2.2373 Y1.6532 Z-0.075
G81 X2.2374 Y0.8167 Z-0.075
G81 X2.1243 Y0.5803 Z-0.075
G81 X2.2273 Y0.4452 Z-0.075
G81 X2.1243 Y0.322 Z-0.075
G81 X2.2273 Y0.1971 Z-0.075
G81 X2.0306 Y0.006 Z-0.075
G80
( .031 Drills )
G0 Z0.125
( T2 : 0.031 )
T2 M6
M3 S1000
G0 X0.3864 Y2.2855
G98
G81 X0.3864 Y2.2855 Z-0.075 R0.125 F20.0
G81 X0.3875 Y2.1503 Z-0.075
G81 X0.3885 Y2.0266 Z-0.075
G81 X0.3875 Y1.8934 Z-0.075
G81 X0.5426 Y1.6544 Z-0.075
G81 X0.6254 Z-0.075
G81 X0.79 Y1.7582 Z-0.075
G81 Y1.8924 Z-0.075
G81 Y2.0266 Z-0.075
G81 X0.791 Y2.1513 Z-0.075
G81 Y2.2855 Z-0.075
G81 X0.9871 Y2.0266 Z-0.075
G81 X1.1212 Y2.0276 Z-0.075
G81 X1.2565 Y2.0266 Z-0.075
G81 X1.3906 Y2.0276 Z-0.075
G81 X1.3896 Y1.883 Z-0.075
G81 Y1.7581 Z-0.075
G81 Y1.6544 Z-0.075
G81 X1.3782 Y1.5196 Z-0.075
G81 X1.5025 Y1.5209 Z-0.075
G81 X1.4923 Y1.3863 Z-0.075
G81 X1.3891 Z-0.075
G81 X1.2914 Z-0.075
G81 X1.1937 Z-0.075
G81 X1.0905 Z-0.075
G81 X0.9914 Y1.3849 Z-0.075
G81 X0.8924 Y1.3863 Z-0.075
G81 X0.8728 Y1.5202 Z-0.075
G81 X0.997 Z-0.075
G81 X0.9871 Y1.6544 Z-0.075
G81 X0.986 Y1.7582 Z-0.075
G81 Y1.883 Z-0.075
G81 X1.1212 Y1.884 Z-0.075
G81 X1.2554 Y1.883 Z-0.075
G81 Y2.2121 Z-0.075
G81 X1.1212 Y2.2132 Z-0.075
G81 X1.5862 Y2.1513 Z-0.075
G81 Y2.027 Z-0.075
G81 Y1.8925 Z-0.075
G81 Y1.7581 Z-0.075
G81 X1.7714 Y1.6554 Z-0.075
G81 Y1.5615 Z-0.075
G81 X1.6262 Y1.3765 Z-0.075
G81 X1.6261 Y1.0971 Z-0.075
G81 X1.4922 Y1.0874 Z-0.075
G81 X1.389 Z-0.075
G81 X1.2913 Z-0.075
G81 X1.1922 Z-0.075
G81 X1.0904 Z-0.075
G81 X0.9927 Z-0.075
G81 X0.8937 Z-0.075
G81 X0.8727 Y0.952 Z-0.075
G81 X0.9969 Y0.9534 Z-0.075
G81 X0.9857 Y0.8181 Z-0.075
G81 X0.9871 Y0.7148 Z-0.075
G81 X0.9859 Y0.5921 Z-0.075
G81 X1.1198 Z-0.075
G81 X1.2538 Y0.5907 Z-0.075
G81 X1.3891 Z-0.075
G81 X1.389 Y0.7148 Z-0.075
G81 X1.3903 Y0.8181 Z-0.075
G81 X1.3792 Y0.9534 Z-0.075
G81 X1.502 Z-0.075
G81 X1.5857 Y0.7162 Z-0.075
G81 X1.5864 Y0.5808 Z-0.075
G81 Y0.4469 Z-0.075
G81 Y0.3227 Z-0.075
G81 X1.585 Y0.1888 Z-0.075
G81 X1.8124 Y0.0632 Z-0.075
G81 X1.9882 Y0.1874 Z-0.075
G81 Y0.3227 Z-0.075
G81 Y0.4469 Z-0.075
G81 Y0.5794 Z-0.075
G81 X1.7712 Y0.8181 Z-0.075
G81 Y0.9116 Z-0.075
G81 X2.1752 Y0.9115 Z-0.075
G81 X2.1746 Y1.5621 Z-0.075
G81 X1.9895 Y1.8925 Z-0.075
G81 Y2.0257 Z-0.075
G81 Y2.1513 Z-0.075
G81 X1.9883 Y2.2845 Z-0.075
G81 X1.8145 Y2.41 Z-0.075
G81 X1.5862 Y2.287 Z-0.075
G81 X2.247 Y2.4088 Z-0.075
G81 X0.6551 Y1.3748 Z-0.075
G81 X0.5114 Y1.3134 Z-0.075
G81 X0.3872 Z-0.075
G81 Y1.1599 Z-0.075
G81 X0.5114 Z-0.075
G81 X0.51 Y1.0036 Z-0.075
G81 X0.3872 Y1.005 Z-0.075
G81 X0.5421 Y0.8181 Z-0.075
G81 X0.6258 Z-0.075
G81 X0.7904 Y0.7148 Z-0.075
G81 X0.7906 Y0.5809 Z-0.075
G81 X0.7892 Y0.447 Z-0.075
G81 Y0.3228 Z-0.075
G81 X0.7906 Y0.1875 Z-0.075
G81 X0.9859 Y0.4456 Z-0.075
G81 X1.1198 Z-0.075
G81 X1.2552 Y0.447 Z-0.075
G81 X1.3891 Z-0.075
G81 X1.2552 Y0.2614 Z-0.075
G81 X1.1198 Z-0.075
G81 X0.3874 Y0.1875 Z-0.075
G81 X0.386 Y0.3214 Z-0.075
G81 X0.3874 Y0.4442 Z-0.075
G81 Y0.5795 Z-0.075
G81 X0.1697 Y0.8181 Z-0.075
G81 X0.6551 Y1.0971 Z-0.075
G81 X0.5114 Y1.4682 Z-0.075
G81 X0.3858 Z-0.075
G81 X0.1696 Y1.6557 Z-0.075
G81 X2.2477 Y0.0646 Z-0.075
G80
( isolation )
G0 Z0.125
( T3 : 0.0039 )
T3 M6
M3 S1000
G0 X0.8161 Y1.3404
G1 F20.0 Z-0.0045
G1 F40.0 X0.8264
G1 Y1.3921
G1 Y1.4437
G1 X0.8181
G3 X0.8123 Y1.442 I0.0014 J-0.0158
G1 X0.8048 Y1.4376
G3 X0.7975 Y1.4313 I0.0135 J-0.0235
G1 X0.7912 Y1.4239
G3 X0.7868 Y1.4162 I0.0134 J-0.0129
G1 X0.7851 Y1.4101
G1 Y1.4012
G1 X0.7954 Y1.4076
G1 X0.8057 Y1.414
G1 Y1.3772
G1 Y1.3404
G1 X0.8161
G0 Z0.125
G0 X0.8514 Y1.3379
G1 F20.0 Z-0.0045
G1 F40.0 X0.8509 Y1.3303
G3 X0.8546 Y1.3264 I0.0037 J-0.0003
G1 X0.8922
G1 X0.9297
G3 X0.9334 Y1.3301 I0.0 J0.0037
G1 Y1.3869
G1 Y1.4437
G3 X0.9297 Y1.4475 I-0.0037 J0.0
G1 X0.9142
G1 X0.9024
G1 Y1.4638
G1 Y1.4818
G1 X0.911 Y1.4871
G1 X0.9214 Y1.4935
G3 X0.9231 Y1.4966 I-0.002 J0.0032
G1 Y1.5212
G1 Y1.5459
G3 X0.9214 Y1.549 I-0.0037 J0.0
G1 X0.911 Y1.5554
G1 X0.9024 Y1.5607
G1 Y1.6148
G1 Y1.6711
G3 X0.8987 Y1.6748 I-0.0037 J0.0
G1 X0.8522
G1 X0.8094
G1 Y1.6905
G1 Y1.7081
G1 X0.8236 Y1.7199
G1 X0.8391 Y1.7327
G3 X0.8404 Y1.7356 I-0.0024 J0.0029
G1 Y1.7581
G1 Y1.7806
G3 X0.8394 Y1.7832 I-0.0037 J0.0
G1 X0.827 Y1.7956
G1 X0.8146 Y1.808
G3 X0.8119 Y1.8091 I-0.0026 J-0.0026
G1 X0.7902
G1 X0.7685
G3 X0.7659 Y1.808 I0.0 J-0.0037
G1 X0.7535 Y1.7956
G1 X0.7411 Y1.7832
G3 X0.74 Y1.7806 I0.0026 J-0.0026
G1 Y1.7581
G1 Y1.7356
G3 X0.7414 Y1.7327 I0.0037 J0.0
G1 X0.7569 Y1.7199
G1 X0.771 Y1.7081
G1 Y1.6905
G1 Y1.6748
G1 X0.7243
G1 X0.6757
G1 X0.6639 Y1.6889
G1 X0.6511 Y1.7044
G3 X0.6482 Y1.7058 I-0.0029 J-0.0024
G1 X0.6242
G1 X0.6003
G3 X0.5971 Y1.704 I0.0 J-0.0037
G1 X0.5902 Y1.6928
G1 X0.5857 Y1.6856
G1 X0.5778 Y1.6935
G1 X0.5666 Y1.7047
G3 X0.5639 Y1.7058 I-0.0026 J-0.0026
G1 X0.5422
G1 X0.5205
G3 X0.5179 Y1.7047 I0.0 J-0.0037
G1 X0.5055 Y1.6923
G1 X0.4931 Y1.6799
G3 X0.492 Y1.6773 I0.0026 J-0.0026
G1 Y1.6556
G1 Y1.6339
G3 X0.4931 Y1.6312 I0.0037 J0.0
G1 X0.5055 Y1.6188
G1 X0.5179 Y1.6064
G3 X0.5205 Y1.6054 I0.0026 J0.0026
G1 X0.5437
G1 X0.5668
G3 X0.57 Y1.6071 I0.0 J0.0037
G1 X0.577 Y1.6184
G1 X0.5814 Y1.6256
G1 X0.5893 Y1.6177
G1 X0.6006 Y1.6064
G3 X0.6032 Y1.6054 I0.0026 J0.0026
G1 X0.6257
G1 X0.6482
G3 X0.6511 Y1.6067 I0.0 J0.0037
G1 X0.6639 Y1.6222
G1 X0.6757 Y1.6364
G1 X0.7708
G1 X0.864
G1 Y1.6064
G1 Y1.5748
G1 X0.8451 Y1.563
G1 X0.8244 Y1.5501
G3 X0.8227 Y1.5469 I0.002 J-0.0032
G1 Y1.5212
G1 Y1.4956
G3 X0.8244 Y1.4924 I0.0037 J0.0
G1 X0.8436 Y1.4805
G1 X0.8609 Y1.4697
G1 X0.856 Y1.4011
G1 X0.8514 Y1.3379
G0 Z0.125
G0 Y1.2925
G1 F20.0 Z-0.0045
G1 F40.0 X0.5614
G1 Y1.3125
G1 Y1.3363
G3 X0.5604 Y1.3389 I-0.0037 J0.0
G1 X0.548 Y1.3513
G1 X0.5356 Y1.3637
G3 X0.5329 Y1.3648 I-0.0026 J-0.0026
G1 X0.5112
G1 X0.4895
G3 X0.4869 Y1.3637 I0.0 J-0.0037
G1 X0.4745 Y1.3513
G1 X0.4621 Y1.3389
G3 X0.461 Y1.3363 I0.0026 J-0.0026
G1 Y1.3125
G1 Y1.2925
G1 X0.4492
G1 X0.4375
G1 Y1.3133
G1 Y1.3379
G3 X0.4361 Y1.3407 I-0.0037 J0.0
G1 X0.4206 Y1.3536
G1 X0.4051 Y1.3665
G3 X0.4019 Y1.3673 I-0.0024 J-0.0029
G1 X0.3724 Y1.3614
G1 X0.2723 Y1.4832
G3 X0.2695 Y1.4845 I-0.0029 J-0.0024
G1 X0.0976
G3 X0.0939 Y1.4808 I0.0 J-0.0037
G1 Y1.3933
G3 X0.0976 Y1.3896 I0.0037 J0.0
G1 X0.2679
G1 X0.337 Y1.3182
G1 Y1.2887
G1 Y1.2577
G3 X0.3407 Y1.254 I0.0037 J0.0
G1 X0.7747
G1 X1.2087
G3 X1.2124 Y1.2577 I0.0 J0.0037
G1 Y1.2918
G1 Y1.3244
G1 X1.2224 Y1.3343
G1 X1.2334 Y1.3453
G3 X1.2344 Y1.3482 I-0.0026 J0.0026
G1 X1.2312 Y1.3935
G1 X1.2279 Y1.4388
G3 X1.2242 Y1.4423 I-0.0037 J-0.0003
G1 X1.1932
G1 X1.1622
G3 X1.1585 Y1.4388 I0.0 J-0.0037
G1 X1.1553 Y1.3935
G1 X1.152 Y1.3482
G3 X1.1531 Y1.3453 I0.0037 J-0.0003
G1 X1.1641 Y1.3344
G2 X1.1689 Y1.3272 I-0.0221 J-0.0203
G2 X1.1726 Y1.3174 I-0.0468 J-0.023
G2 X1.174 Y1.3071 I-0.1924 J-0.0319
G1 Y1.2925
G1 X0.8677
G1 X0.8514
G0 Z0.125
G0 Y1.2201
G1 F20.0 Z-0.0045
G1 F40.0 X0.7747
G1 X0.3407
G3 X0.337 Y1.2164 I0.0 J-0.0037
G1 Y1.1854
G1 Y1.1561
G1 X0.2681 Y1.0986
G1 X0.0976
G3 X0.0939 Y1.0949 I0.0 J-0.0037
G1 Y1.0074
G3 X0.0976 Y1.0037 I0.0037 J0.0
G1 X0.2695
G3 X0.2722 Y1.0049 I0.0 J0.0037
G1 X0.3723 Y1.1128
G1 X0.4019 Y1.1069
G3 X0.4051 Y1.1076 I0.0007 J0.0036
G1 X0.4206 Y1.1205
G1 X0.4361 Y1.1334
G3 X0.4375 Y1.1363 I-0.0024 J0.0029
G1 Y1.1608
G1 Y1.1817
G1 X0.4492
G1 X0.461
G1 Y1.1616
G1 Y1.1379
G3 X0.4621 Y1.1352 I0.0037 J0.0
G1 X0.4745 Y1.1228
G1 X0.4869 Y1.1104
G3 X0.4895 Y1.1094 I0.0026 J0.0026
G1 X0.5112
G1 X0.5329
G3 X0.5356 Y1.1104 I0.0 J0.0037
G1 X0.548 Y1.1228
G1 X0.5604 Y1.1352
G3 X0.5614 Y1.1379 I-0.0026 J0.0026
G1 Y1.1616
G1 Y1.1817
G1 X0.8677
G1 X1.174
G1 Y1.1669
G2 X1.1726 Y1.1567 I-0.0638 J0.0037
G3 Y1.1566 I0.0036 J-0.0008
G2 X1.1691 Y1.1473 I-0.0286 J0.0052
G1 X1.1639 Y1.1396
G1 X1.1531 Y1.1288
G3 X1.152 Y1.1259 I0.0026 J-0.0026
G1 X1.1553 Y1.0806
G1 X1.1585 Y1.0353
G3 X1.1618 Y1.0319 I0.0037 J0.0003
G1 X1.188 Y1.0288
G1 X1.2142 Y1.0258
G3 X1.2173 Y1.0268 I0.0004 J0.0037
G1 X1.2247 Y1.0342
G1 X1.232 Y1.0416
G3 X1.2331 Y1.0442 I-0.0026 J0.0026
G1 Y1.0884
G1 Y1.1325
G3 X1.2314 Y1.1357 I-0.0037 J0.0
G1 X1.221 Y1.1421
G1 X1.2124 Y1.1474
G1 Y1.1808
G1 Y1.2164
G3 X1.2087 Y1.2201 I-0.0037 J0.0
G1 X0.8514
G0 Z0.125
G0 X0.8621 Y1.1426
G1 F20.0 Z-0.0045
G3 F40.0 X0.8588 Y1.1388 I0.0005 J-0.0037
G1 X0.86 Y1.0717
G1 X0.8611 Y1.0065
G1 X0.8435 Y0.9941
G1 X0.8243 Y0.9806
G3 X0.8227 Y0.9776 I0.0021 J-0.003
G1 Y0.9524
G1 Y0.9272
G3 X0.8244 Y0.9241 I0.0037 J0.0
G1 X0.8451 Y0.9112
G1 X0.864 Y0.8994
G1 Y0.8678
G1 Y0.8378
G1 X0.7708
G1 X0.6757
G1 X0.6639 Y0.8519
G1 X0.6511 Y0.8674
G3 X0.6482 Y0.8688 I-0.0029 J-0.0024
G1 X0.6242
G1 X0.6003
G3 X0.5971 Y0.867 I0.0 J-0.0037
G1 X0.5902 Y0.8558
G1 X0.5857 Y0.8486
G1 X0.5778 Y0.8565
G1 X0.5666 Y0.8677
G3 X0.5639 Y0.8688 I-0.0026 J-0.0026
G1 X0.5422
G1 X0.5205
G3 X0.5179 Y0.8677 I0.0 J-0.0037
G1 X0.5055 Y0.8553
G1 X0.4931 Y0.8429
G3 X0.492 Y0.8403 I0.0026 J-0.0026
G1 Y0.8186
G1 Y0.7969
G3 X0.4931 Y0.7942 I0.0037 J0.0
G1 X0.5055 Y0.7818
G1 X0.5179 Y0.7694
G3 X0.5205 Y0.7684 I0.0026 J0.0026
G1 X0.5422
G1 X0.5639
G3 X0.5666 Y0.7694 I0.0 J0.0037
G1 X0.5778 Y0.7807
G1 X0.5857 Y0.7886
G1 X0.5902 Y0.7814
G1 X0.5971 Y0.7701
G3 X0.6003 Y0.7684 I0.0032 J0.002
G1 X0.6242
G1 X0.6482
G3 X0.6511 Y0.7697 I0.0 J0.0037
G1 X0.6639 Y0.7852
G1 X0.6757 Y0.7994
G1 X0.7243
G1 X0.771
G1 Y0.7837
G1 Y0.766
G1 X0.7569 Y0.7543
G1 X0.7414 Y0.7414
G3 X0.74 Y0.7385 I0.0024 J-0.0029
G1 Y0.716
G1 Y0.6935
G3 X0.7411 Y0.6909 I0.0037 J0.0
G1 X0.7535 Y0.6785
G1 X0.7659 Y0.6661
G3 X0.7685 Y0.665 I0.0026 J0.0026
G1 X0.7902
G1 X0.8119
G3 X0.8146 Y0.6661 I0.0 J0.0037
G1 X0.827 Y0.6785
G1 X0.8394 Y0.6909
G3 X0.8404 Y0.6935 I-0.0026 J0.0026
G1 Y0.716
G1 Y0.7385
G3 X0.8391 Y0.7414 I-0.0037 J0.0
G1 X0.8236 Y0.7543
G1 X0.8095 Y0.766
G1 Y0.7837
G1 Y0.7994
G1 X0.8522
G1 X0.8987
G3 X0.9025 Y0.8031 I0.0 J0.0037
G1 Y0.8593
G1 Y0.9134
G1 X0.911 Y0.9187
G1 X0.9214 Y0.9251
G3 X0.9231 Y0.9283 I-0.002 J0.0032
G1 Y0.9529
G1 Y0.9775
G3 X0.9214 Y0.9807 I-0.0037 J0.0
G1 X0.911 Y0.9871
G1 X0.9025 Y0.9924
G1 Y1.0092
G1 Y1.0256
G1 X0.9161 Y1.0309
G1 X0.9322 Y1.0371
G3 X0.9346 Y1.0408 I-0.0013 J0.0035
G1 X0.9314 Y1.09
G1 X0.9283 Y1.1391
G3 X0.9246 Y1.1426 I-0.0037 J-0.0002
G1 X0.8936
G1 X0.8626
G3 X0.8621 I0.0 J-0.0037
G0 Z0.125
G0 X0.9622 Y1.139
G1 F20.0 Z-0.0045
G3 F40.0 Y1.1389 I0.0037 J-0.0001
G1 Y1.065
G1 Y0.9926
G1 X0.9555 Y0.9858
G3 X0.9552 Y0.9855 I0.0027 J-0.0026
G3 X0.9507 Y0.9772 I0.021 J-0.0168
G3 X0.9506 Y0.9769 I0.0035 J-0.0012
G1 X0.9478 Y0.9656
G3 Y0.9655 I0.0036 J-0.0009
G3 X0.9467 Y0.9517 I0.0546 J-0.0115
G1 Y0.9283
G3 X0.9484 Y0.9251 I0.0037 J0.0
G1 X0.9588 Y0.9187
G1 X0.9673 Y0.9134
G1 Y0.8916
G1 Y0.8693
G1 X0.9532 Y0.8576
G1 X0.9377 Y0.8447
G3 X0.9363 Y0.8419 I0.0024 J-0.0029
G1 Y0.8186
G1 Y0.7953
G3 X0.9377 Y0.7924 I0.0037 J0.0
G1 X0.9534 Y0.7793
G1 X0.9662 Y0.7687
G1 X0.9531 Y0.7542
G1 X0.9373 Y0.7368
G3 X0.9363 Y0.7343 I0.0028 J-0.0025
G1 Y0.7131
G1 Y0.6919
G3 X0.9377 Y0.6891 I0.0037 J0.0
G1 X0.9532 Y0.6762
G3 X0.9533 Y0.6761 I0.0024 J0.0029
G2 X0.9602 Y0.6688 I-0.0173 J-0.0233
G1 X0.9656 Y0.6599
G2 X0.9673 Y0.6529 I-0.034 J-0.0124
G2 X0.9657 Y0.6468 I-0.0124 J0.0
G3 X0.9654 Y0.646 I0.0032 J-0.0018
G2 X0.9608 Y0.6383 I-0.0174 J0.0052
G3 X0.9607 Y0.6382 I0.0026 J-0.0026
G1 X0.953 Y0.6301
G1 X0.9377 Y0.6174
G3 X0.9363 Y0.6145 I0.0024 J-0.0029
G1 Y0.592
G1 Y0.5695
G3 X0.9374 Y0.5669 I0.0037 J0.0
G1 X0.9498 Y0.5545
G1 X0.9622 Y0.5421
G3 X0.9649 Y0.541 I0.0026 J0.0026
G1 X0.9866
G1 X1.0083
G3 X1.0109 Y0.5421 I0.0 J0.0037
G1 X1.0233 Y0.5545
G1 X1.0357 Y0.5669
G3 X1.0368 Y0.5695 I-0.0026 J0.0026
G1 Y0.592
G1 Y0.6145
G3 X1.0354 Y0.6174 I-0.0037 J0.0
G1 X1.0199 Y0.6303
G3 X1.0198 Y0.6304 I-0.0024 J-0.0029
G2 X1.0129 Y0.6376 I0.0173 J0.0233
G1 X1.0076 Y0.6466
G2 X1.0058 Y0.6535 I0.034 J0.0124
G2 X1.0074 Y0.6597 I0.0124 J0.0
G3 X1.0078 Y0.6605 I-0.0032 J0.0018
G2 X1.0124 Y0.6682 I0.0174 J-0.0052
G3 X1.0125 Y0.6683 I-0.0026 J0.0026
G1 X1.0201 Y0.6764
G1 X1.0354 Y0.6891
G3 X1.0368 Y0.6919 I-0.0024 J0.0029
G1 Y0.7152
G1 Y0.7385
G3 X1.0354 Y0.7414 I-0.0037 J0.0
G1 X1.0197 Y0.7545
G1 X1.0069 Y0.7651
G1 X1.0201 Y0.7796
G1 X1.0358 Y0.797
G3 X1.0368 Y0.7995 I-0.0028 J0.0025
G1 Y0.8207
G1 Y0.8419
G3 X1.0354 Y0.8447 I-0.0037 J0.0
G1 X1.0199 Y0.8576
G1 X1.0058 Y0.8693
G1 Y0.8845
G1 Y0.8994
G1 X1.0247 Y0.9112
G1 X1.0454 Y0.9241
G3 X1.0471 Y0.9272 I-0.002 J0.0032
G1 Y0.9524
G1 Y0.9776
G3 X1.0455 Y0.9806 I-0.0037 J0.0
G1 X1.023 Y0.9964
G1 X1.0031 Y1.0103
G1 X1.0145 Y1.0316
G1 X1.0275 Y1.0559
G3 X1.0279 Y1.0579 I-0.0033 J0.0018
G1 X1.0246 Y1.0986
G1 X1.0213 Y1.1392
G3 X1.0176 Y1.1426 I-0.0037 J-0.0003
G1 X0.9917
G1 X0.9659
G3 X0.9622 Y1.139 I0.0 J-0.0037
G0 Z0.125
G0 X1.0547 Y1.1324
G1 F20.0 Z-0.0045
G1 F40.0 X1.0519 Y1.0939
G1 X1.0487 Y1.0485
G3 X1.0498 Y1.0456 I0.0037 J-0.0003
G1 X1.0608 Y1.0346
G1 X1.0707 Y1.0247
G1 Y0.8733
G1 Y0.7204
G3 X1.0744 Y0.7167 I0.0037 J0.0
G1 X1.0899
G1 X1.1017
G1 Y0.6803
G1 Y0.642
G1 X1.0875 Y0.6303
G1 X1.072 Y0.6174
G3 X1.0707 Y0.6145 I0.0024 J-0.0029
G1 Y0.5912
G1 Y0.5679
G3 X1.072 Y0.5651 I0.0037 J0.0
G1 X1.0875 Y0.5522
G1 X1.1017 Y0.5405
G1 Y0.5189
G1 Y0.4974
G1 X1.0875 Y0.4856
G1 X1.072 Y0.4727
G3 X1.0707 Y0.4699 I0.0024 J-0.0029
G1 Y0.4466
G1 Y0.4233
G3 X1.072 Y0.4204 I0.0037 J0.0
G1 X1.0875 Y0.4075
G1 X1.1017 Y0.3958
G1 Y0.3833
G1 Y0.3728
G1 X1.0382
G1 X0.9711
G3 X0.9673 Y0.3691 I0.0 J-0.0037
G1 Y0.2399
G1 Y0.1145
G1 X0.8006
G1 X0.6338
G1 Y0.3667
G1 Y0.6227
G3 X0.6327 Y0.6254 I-0.0037 J0.0
G1 X0.55 Y0.7075
G1 X0.4684 Y0.7886
G1 Y0.8292
G1 Y0.8697
G1 X0.4798 Y0.881
G1 X0.4911 Y0.8924
G1 X0.5422
G1 X0.5949
G3 X0.5975 Y0.8935 I0.0 J0.0037
G1 X0.6358 Y0.9327
G1 X0.6741 Y0.9718
G3 X0.6751 Y0.9744 I-0.0027 J0.0026
G1 Y1.0115
G1 Y1.0468
G1 X0.6893 Y1.0585
G1 X0.7048 Y1.0714
G3 X0.7061 Y1.0743 I-0.0024 J0.0029
G1 Y1.0968
G1 Y1.1193
G3 X0.705 Y1.1219 I-0.0037 J0.0
G1 X0.6926 Y1.1343
G1 X0.6802 Y1.1467
G3 X0.6776 Y1.1478 I-0.0026 J-0.0026
G1 X0.6559
G1 X0.6342
G3 X0.6316 Y1.1467 I0.0 J-0.0037
G1 X0.6192 Y1.1343
G1 X0.6068 Y1.1219
G3 X0.6057 Y1.1193 I0.0026 J-0.0026
G1 Y1.0968
G1 Y1.0743
G3 X0.607 Y1.0714 I0.0037 J0.0
G1 X0.6225 Y1.0585
G1 X0.6367 Y1.0468
G1 Y1.0261
G1 Y1.0052
G1 X0.5986 Y0.968
G1 X0.5605 Y0.9308
G1 X0.5103
G1 X0.4585
G3 X0.4559 Y0.9297 I0.0 J-0.0037
G1 X0.4435 Y0.9173
G1 X0.4311 Y0.9049
G3 X0.43 Y0.9023 I0.0026 J-0.0026
G1 Y0.8292
G1 Y0.7561
G3 X0.4311 Y0.7534 I0.0037 J0.0
G1 X0.5138 Y0.6713
G1 X0.5953 Y0.5902
G1 Y0.3357
G1 Y0.0797
G3 X0.5991 Y0.076 I0.0037 J0.0
G1 X0.8006
G1 X1.0021
G3 X1.0058 Y0.0797 I0.0 J0.0037
G1 Y0.2089
G1 Y0.3344
G1 X1.0692
G1 X1.1364
G3 X1.1401 Y0.3381 I0.0 J0.0037
G1 Y0.3678
G1 Y0.3958
G1 X1.1543 Y0.4075
G1 X1.1698 Y0.4204
G3 X1.1711 Y0.4233 I-0.0024 J0.0029
G1 Y0.4466
G1 Y0.4699
G3 X1.1698 Y0.4727 I-0.0037 J0.0
G1 X1.1543 Y0.4856
G1 X1.1401 Y0.4974
G1 Y0.5189
G1 Y0.5405
G1 X1.1543 Y0.5522
G1 X1.1698 Y0.5651
G3 X1.1711 Y0.5679 I-0.0024 J0.0029
G1 Y0.5912
G1 Y0.6145
G3 X1.1698 Y0.6174 I-0.0037 J0.0
G1 X1.1543 Y0.6303
G1 X1.1401 Y0.642
G1 Y0.6958
G1 Y0.7514
G3 X1.1364 Y0.7551 I-0.0037 J0.0
G1 X1.1209
G1 X1.1091
G1 Y0.8888
G1 Y1.0247
G1 X1.119 Y1.0346
G1 X1.13 Y1.0456
G3 X1.1311 Y1.0485 I-0.0026 J0.0026
G1 X1.1279 Y1.0939
G1 X1.1246 Y1.1392
G3 X1.1209 Y1.1426 I-0.0037 J-0.0003
G1 X1.0899
G1 X1.0589
G3 X1.0552 Y1.1392 I0.0 J-0.0037
G1 X1.0547 Y1.1324
G0 Z0.125
G0 X1.0777 Y1.3293
G1 F20.0 Z-0.0045
G1 F40.0 X1.0847 Y1.3285
G1 X1.1109 Y1.3254
G3 X1.114 Y1.3265 I0.0004 J0.0037
G1 X1.1213 Y1.3339
G1 X1.1287 Y1.3412
G3 X1.1298 Y1.3439 I-0.0026 J0.0026
G1 Y1.388
G1 Y1.4322
G3 X1.128 Y1.4354 I-0.0037 J0.0
G1 X1.1177 Y1.4417
G1 X1.1091 Y1.447
G1 Y1.5838
G1 Y1.719
G1 X1.1209
G1 X1.1364
G3 X1.1401 Y1.7227 I0.0 J0.0037
G1 Y1.7783
G1 Y1.8321
G1 X1.1543 Y1.8439
G1 X1.1698 Y1.8567
G3 X1.1711 Y1.8596 I-0.0024 J0.0029
G1 Y1.8829
G1 Y1.9062
G3 X1.1698 Y1.9091 I-0.0037 J0.0
G1 X1.1543 Y1.9219
G1 X1.1401 Y1.9337
G1 Y1.9552
G1 Y1.9768
G1 X1.1543 Y1.9885
G1 X1.1698 Y2.0014
G3 X1.1711 Y2.0043 I-0.0024 J0.0029
G1 Y2.0276
G1 Y2.0509
G3 X1.1698 Y2.0537 I-0.0037 J0.0
G1 X1.1543 Y2.0666
G1 X1.1401 Y2.0783
G1 Y2.1063
G1 Y2.1361
G3 X1.1364 Y2.1398 I-0.0037 J0.0
G1 X1.0692
G1 X1.0058
G1 Y2.2652
G1 Y2.3944
G3 X1.0021 Y2.3981 I-0.0037 J0.0
G1 X0.8006
G1 X0.5991
G3 X0.5953 Y2.3944 I0.0 J-0.0037
G1 Y2.1384
G1 Y1.884
G1 X0.5138 Y1.8029
G1 X0.4311 Y1.7207
G3 X0.43 Y1.7181 I0.0026 J-0.0026
G1 Y1.645
G1 Y1.5719
G3 X0.4311 Y1.5692 I0.0037 J0.0
G1 X0.4435 Y1.5568
G1 X0.4559 Y1.5444
G3 X0.4585 Y1.5434 I0.0026 J0.0026
G1 X0.5112
G1 X0.5623
G1 X0.5995 Y1.5053
G1 X0.6367 Y1.4672
G1 Y1.4472
G1 Y1.4273
G1 X0.6225 Y1.4156
G1 X0.607 Y1.4027
G3 X0.6057 Y1.3999 I0.0024 J-0.0029
G1 Y1.3774
G1 Y1.3549
G3 X0.6068 Y1.3522 I0.0037 J0.0
G1 X0.6192 Y1.3398
G1 X0.6316 Y1.3274
G3 X0.6342 Y1.3264 I0.0026 J0.0026
G1 X0.6559
G1 X0.6776
G3 X0.6802 Y1.3274 I0.0 J0.0037
G1 X0.6926 Y1.3398
G1 X0.705 Y1.3522
G3 X0.7061 Y1.3549 I-0.0026 J0.0026
G1 Y1.3774
G1 Y1.3999
G3 X0.7048 Y1.4027 I-0.0037 J0.0
G1 X0.6893 Y1.4156
G1 X0.6751 Y1.4273
G1 Y1.4636
G1 Y1.5015
G3 X0.674 Y1.5042 I-0.0037 J0.0
G1 X0.6348 Y1.5425
G1 X0.5956 Y1.5807
G3 X0.593 Y1.5818 I-0.0026 J-0.0027
G1 X0.5413
G1 X0.4911
G1 X0.4798 Y1.5931
G1 X0.4684 Y1.6044
G1 Y1.645
G1 Y1.6855
G1 X0.55 Y1.7666
G1 X0.6327 Y1.8488
G3 X0.6338 Y1.8514 I-0.0026 J0.0026
G1 Y2.1074
G1 Y2.3597
G1 X0.8006
G1 X0.9673
G1 Y2.2342
G1 Y2.1051
G3 X0.9711 Y2.1014 I0.0037 J0.0
G1 X1.0382
G1 X1.1017
G1 Y2.0908
G1 Y2.0783
G1 X1.0875 Y2.0666
G1 X1.072 Y2.0537
G3 X1.0707 Y2.0509 I0.0024 J-0.0029
G1 Y2.0276
G1 Y2.0043
G3 X1.072 Y2.0014 I0.0037 J0.0
G1 X1.0875 Y1.9885
G1 X1.1017 Y1.9768
G1 Y1.9552
G1 Y1.9337
G1 X1.0875 Y1.9219
G1 X1.072 Y1.9091
G3 X1.0707 Y1.9062 I0.0024 J-0.0029
G1 Y1.8829
G1 Y1.8596
G3 X1.072 Y1.8567 I0.0037 J0.0
G1 X1.0875 Y1.8439
G1 X1.1017 Y1.8321
G1 Y1.7938
G1 Y1.7575
G1 X1.0899
G1 X1.0744
G3 X1.0707 Y1.7537 I0.0 J-0.0037
G1 Y1.6008
G1 Y1.4494
G1 X1.0608 Y1.4395
G1 X1.0498 Y1.4285
G3 X1.0487 Y1.4256 I0.0026 J-0.0026
G1 X1.0519 Y1.3803
G1 X1.0552 Y1.335
G3 X1.0585 Y1.3315 I0.0037 J0.0003
G1 X1.0777 Y1.3293
G0 Z0.125
G0 X1.0263 Y1.3429
G1 F20.0 Z-0.0045
G3 F40.0 X1.0264 Y1.3439 I-0.0036 J0.001
G1 Y1.3836
G1 Y1.4234
G3 X1.0259 Y1.4253 I-0.0037 J0.0
G1 X1.0131 Y1.4458
G1 X1.0022 Y1.4632
G1 X1.0224 Y1.4774
G1 X1.0455 Y1.4935
G3 X1.0471 Y1.4966 I-0.0021 J0.003
G1 Y1.5217
G1 Y1.5469
G3 X1.0454 Y1.5501 I-0.0037 J0.0
G1 X1.0247 Y1.563
G1 X1.0058 Y1.5748
G1 Y1.5896
G1 Y1.6048
G1 X1.0199 Y1.6165
G1 X1.0354 Y1.6294
G3 X1.0368 Y1.6323 I-0.0024 J0.0029
G1 Y1.6556
G1 Y1.6789
G3 X1.0354 Y1.6817 I-0.0037 J0.0
G1 X1.0197 Y1.6948
G1 X1.0069 Y1.7054
G1 X1.0201 Y1.72
G1 X1.0358 Y1.7374
G3 X1.0368 Y1.7399 I-0.0028 J0.0025
G1 Y1.761
G1 Y1.7822
G3 X1.0354 Y1.7851 I-0.0037 J0.0
G1 X1.0199 Y1.7979
G3 X1.0198 Y1.7981 I-0.0024 J-0.0029
G2 X1.0129 Y1.8053 I0.0171 J0.023
G1 X1.0076 Y1.8142
G2 X1.0058 Y1.8212 I0.0338 J0.0123
G2 X1.0074 Y1.8274 I0.0124 J0.0
G3 X1.0078 Y1.8281 I-0.0032 J0.0018
G2 X1.0124 Y1.8358 I0.0174 J-0.0052
G3 X1.0125 Y1.8359 I-0.0026 J0.0026
G1 X1.0201 Y1.844
G1 X1.0354 Y1.8567
G3 X1.0368 Y1.8596 I-0.0024 J0.0029
G1 Y1.8821
G1 Y1.9046
G3 X1.0357 Y1.9072 I-0.0037 J0.0
G1 X1.0233 Y1.9196
G1 X1.0109 Y1.932
G3 X1.0083 Y1.9331 I-0.0026 J-0.0026
G1 X0.9866
G1 X0.9649
G3 X0.9622 Y1.932 I0.0 J-0.0037
G1 X0.9498 Y1.9196
G1 X0.9374 Y1.9072
G3 X0.9363 Y1.9046 I0.0026 J-0.0026
G1 Y1.8821
G1 Y1.8596
G3 X0.9377 Y1.8567 I0.0037 J0.0
G1 X0.9532 Y1.8439
G3 X0.9533 Y1.8437 I0.0024 J0.0029
G2 X0.9602 Y1.8365 I-0.0171 J-0.023
G1 X0.9656 Y1.8276
G2 X0.9673 Y1.8206 I-0.0338 J-0.0123
G2 X0.9657 Y1.8145 I-0.0124 J0.0
G3 X0.9654 Y1.8137 I0.0032 J-0.0018
G2 X0.9608 Y1.806 I-0.0174 J0.0052
G3 X0.9607 Y1.8059 I0.0026 J-0.0026
G1 X0.953 Y1.7978
G1 X0.9377 Y1.7851
G3 X0.9363 Y1.7822 I0.0024 J-0.0029
G1 Y1.7589
G1 Y1.7356
G3 X0.9377 Y1.7327 I0.0037 J0.0
G1 X0.9534 Y1.7197
G1 X0.9662 Y1.7091
G1 X0.9531 Y1.6945
G1 X0.9373 Y1.6771
G3 X0.9363 Y1.6746 I0.0028 J-0.0025
G1 Y1.6534
G1 Y1.6323
G3 X0.9377 Y1.6294 I0.0037 J0.0
G1 X0.9532 Y1.6165
G1 X0.9673 Y1.6048
G1 Y1.5826
G1 Y1.5607
G1 X0.9588 Y1.5554
G1 X0.9484 Y1.549
G3 X0.9467 Y1.5459 I0.002 J-0.0032
G1 Y1.5224
G3 Y1.522 I0.0037 J0.0
G1 X0.9477 Y1.5092
G3 X0.9509 Y1.4965 I0.0297 J0.0006
G3 X0.951 Y1.4964 I0.0033 J0.0017
G1 X0.9549 Y1.4892
G3 X0.9555 Y1.4884 I0.0033 J0.0018
G1 X0.9622 Y1.4816
G1 Y1.4092
G1 Y1.3352
G3 X0.9654 Y1.3316 I0.0037 J0.0
G1 X0.9865 Y1.3285
G1 X1.0076 Y1.3255
G3 X1.0107 Y1.3266 I0.0005 J0.0037
G1 X1.018 Y1.3339
G1 X1.0254 Y1.3412
G3 X1.0263 Y1.3429 I-0.0026 J0.0026
G0 Z0.125
G0 X1.2619 Y1.3381
G1 F20.0 Z-0.0045
G1 F40.0 X1.2618 Y1.3353
G3 X1.2656 Y1.3315 I0.0037 J-0.0001
G1 X1.2914
G1 X1.3172
G3 X1.3209 Y1.335 I0.0 J0.0037
G1 X1.3242 Y1.3803
G1 X1.3274 Y1.4256
G3 X1.3264 Y1.4285 I-0.0037 J0.0003
G1 X1.3154 Y1.4395
G1 X1.3054 Y1.4494
G1 Y1.6008
G1 Y1.7537
G3 X1.3017 Y1.7575 I-0.0037 J0.0
G1 X1.2862
G1 X1.2745
G1 Y1.7938
G1 Y1.8321
G1 X1.2886 Y1.8439
G1 X1.3041 Y1.8567
G3 X1.3054 Y1.8596 I-0.0024 J0.0029
G1 Y1.8829
G1 Y1.9062
G3 X1.3041 Y1.9091 I-0.0037 J0.0
G1 X1.2886 Y1.9219
G1 X1.2745 Y1.9337
G1 Y1.9552
G1 Y1.9768
G1 X1.2886 Y1.9885
G1 X1.3041 Y2.0014
G3 X1.3054 Y2.0043 I-0.0024 J0.0029
G1 Y2.0276
G1 Y2.0509
G3 X1.3041 Y2.0537 I-0.0037 J0.0
G1 X1.2886 Y2.0666
G1 X1.2745 Y2.0783
G1 Y2.0908
G1 Y2.1014
G1 X1.3379
G1 X1.4051
G3 X1.4088 Y2.1051 I0.0 J0.0037
G1 Y2.2342
G1 Y2.3597
G1 X1.5321
G1 X1.6575
G1 X1.6999 Y2.3165
G1 X1.7423 Y2.2733
G1 Y2.0143
G1 Y1.7537
G3 X1.7461 Y1.75 I0.0037 J0.0
G1 X1.8339
G1 X1.918
G1 Y1.5729
G1 Y1.3958
G1 X1.799
G1 X1.678
G1 X1.6663 Y1.4099
G1 X1.6534 Y1.4254
G3 X1.6505 Y1.4268 I-0.0029 J-0.0024
G1 X1.628
G1 X1.6055
G3 X1.6029 Y1.4257 I0.0 J-0.0037
G1 X1.5905 Y1.4133
G1 X1.5781 Y1.4009
G3 X1.577 Y1.3983 I0.0026 J-0.0026
G1 Y1.3766
G1 Y1.3549
G3 X1.5781 Y1.3522 I0.0037 J0.0
G1 X1.5905 Y1.3398
G1 X1.6029 Y1.3274
G3 X1.6055 Y1.3264 I0.0026 J0.0026
G1 X1.628
G1 X1.6505
G3 X1.6534 Y1.3277 I0.0 J0.0037
G1 X1.6663 Y1.3432
G1 X1.678 Y1.3574
G1 X1.8145
G1 X1.9527
G3 X1.9564 Y1.3611 I0.0 J0.0037
G1 Y1.5729
G1 Y1.7847
G3 X1.9527 Y1.7885 I-0.0037 J0.0
G1 X1.8649
G1 X1.7808
G1 Y2.0453
G1 Y2.3058
G3 X1.7797 Y2.3084 I-0.0037 J0.0
G1 X1.7362 Y2.3527
G1 X1.6927 Y2.397
G3 X1.6901 Y2.3981 I-0.0027 J-0.0026
G1 X1.5321
G1 X1.3741
G3 X1.3703 Y2.3944 I0.0 J-0.0037
G1 Y2.2652
G1 Y2.1398
G1 X1.3069
G1 X1.2397
G3 X1.236 Y2.1361 I0.0 J-0.0037
G1 Y2.1063
G1 Y2.0783
G1 X1.2219 Y2.0666
G1 X1.2064 Y2.0537
G3 X1.205 Y2.0509 I0.0024 J-0.0029
G1 Y2.0276
G1 Y2.0043
G3 X1.2064 Y2.0014 I0.0037 J0.0
G1 X1.2219 Y1.9885
G1 X1.236 Y1.9768
G1 Y1.9552
G1 Y1.9337
G1 X1.2219 Y1.9219
G1 X1.2064 Y1.9091
G3 X1.205 Y1.9062 I0.0024 J-0.0029
G1 Y1.8829
G1 Y1.8596
G3 X1.2064 Y1.8567 I0.0037 J0.0
G1 X1.2219 Y1.8439
G1 X1.236 Y1.8321
G1 Y1.7783
G1 Y1.7227
G3 X1.2397 Y1.719 I0.0037 J0.0
G1 X1.2566
G1 X1.2697
G1 X1.2658 Y1.5291
G1 X1.2619 Y1.3381
G0 Z0.125
G0 X1.354 Y1.3456
G1 F20.0 Z-0.0045
G1 F40.0 X1.3549 Y1.3349
G3 X1.3581 Y1.3315 I0.0037 J0.0003
G1 X1.3844 Y1.3285
G1 X1.4106 Y1.3254
G3 X1.4136 Y1.3265 I0.0004 J0.0037
G1 X1.421 Y1.3339
G1 X1.4284 Y1.3412
G3 X1.4294 Y1.3439 I-0.0026 J0.0026
G1 Y1.3836
G1 Y1.4234
G3 X1.4289 Y1.4253 I-0.0037 J0.0
G1 X1.4161 Y1.4458
G1 X1.4045 Y1.4644
G1 X1.4161 Y1.483
G3 X1.4162 Y1.4831 I-0.0032 J0.002
G3 X1.4228 Y1.4965 I-0.1172 J0.0661
G3 X1.4276 Y1.512 I-0.0608 J0.0276
G3 X1.4277 Y1.5122 I-0.0037 J0.0007
G1 X1.4294 Y1.5252
G3 Y1.5257 I-0.0037 J0.0005
G1 Y1.5459
G3 X1.4277 Y1.549 I-0.0037 J0.0
G1 X1.4174 Y1.5554
G1 X1.4088 Y1.5607
G1 Y1.5826
G1 Y1.6048
G1 X1.4229 Y1.6165
G1 X1.4384 Y1.6294
G3 X1.4398 Y1.6323 I-0.0024 J0.0029
G1 Y1.6556
G1 Y1.6789
G3 X1.4384 Y1.6817 I-0.0037 J0.0
G1 X1.4227 Y1.6948
G1 X1.4099 Y1.7054
G1 X1.4231 Y1.72
G1 X1.4388 Y1.7374
G3 X1.4398 Y1.7399 I-0.0028 J0.0025
G1 Y1.761
G1 Y1.7822
G3 X1.4384 Y1.7851 I-0.0037 J0.0
G1 X1.4229 Y1.7979
G3 X1.4228 Y1.7981 I-0.0024 J-0.0029
G2 X1.4159 Y1.8053 I0.017 J0.023
G1 X1.4106 Y1.8142
G2 X1.4088 Y1.8212 I0.0338 J0.0123
G2 X1.4104 Y1.8274 I0.0124 J0.0
G3 X1.4108 Y1.8281 I-0.0032 J0.0018
G2 X1.4154 Y1.8358 I0.0174 J-0.0052
G3 X1.4155 Y1.8359 I-0.0026 J0.0026
G1 X1.4231 Y1.844
G1 X1.4384 Y1.8567
G3 X1.4398 Y1.8596 I-0.0024 J0.0029
G1 Y1.8821
G1 Y1.9046
G3 X1.4387 Y1.9072 I-0.0037 J0.0
G1 X1.4263 Y1.9196
G1 X1.4139 Y1.932
G3 X1.4113 Y1.9331 I-0.0026 J-0.0026
G1 X1.3896
G1 X1.3679
G3 X1.3652 Y1.932 I0.0 J-0.0037
G1 X1.3528 Y1.9196
G1 X1.3404 Y1.9072
G3 X1.3393 Y1.9046 I0.0026 J-0.0026
G1 Y1.8821
G1 Y1.8596
G3 X1.3407 Y1.8567 I0.0037 J0.0
G1 X1.3562 Y1.8439
G3 X1.3563 Y1.8438 I0.0024 J0.0029
G2 X1.3632 Y1.8365 I-0.0172 J-0.0232
G1 X1.3686 Y1.8276
G2 X1.3703 Y1.8206 I-0.0338 J-0.0123
G2 X1.3687 Y1.8145 I-0.0124 J0.0
G3 X1.3684 Y1.8137 I0.0032 J-0.0018
G2 X1.3638 Y1.806 I-0.0174 J0.0052
G3 X1.3637 Y1.8059 I0.0026 J-0.0026
G1 X1.356 Y1.7978
G1 X1.3407 Y1.7851
G3 X1.3393 Y1.7822 I0.0024 J-0.0029
G1 Y1.7589
G1 Y1.7356
G3 X1.3407 Y1.7327 I0.0037 J0.0
G1 X1.3564 Y1.7197
G1 X1.3692 Y1.7091
G1 X1.3561 Y1.6945
G1 X1.3403 Y1.6771
G3 X1.3393 Y1.6746 I0.0028 J-0.0025
G1 Y1.6534
G1 Y1.6323
G3 X1.3407 Y1.6294 I0.0037 J0.0
G1 X1.3562 Y1.6165
G1 X1.3703 Y1.6048
G1 Y1.5896
G1 Y1.5748
G1 X1.3514 Y1.563
G1 X1.3308 Y1.5501
G3 X1.329 Y1.5469 I0.002 J-0.0032
G1 Y1.5217
G1 Y1.4966
G3 X1.3306 Y1.4935 I0.0037 J0.0
G1 X1.3532 Y1.4777
G1 X1.373 Y1.4638
G1 X1.3616 Y1.4425
G1 X1.3486 Y1.4183
G3 X1.3482 Y1.4162 I0.0033 J-0.0018
G1 X1.3515 Y1.3756
G1 X1.354 Y1.3456
G0 Z0.125
G0 X1.4566 Y1.354
G1 F20.0 Z-0.0045
G1 F40.0 X1.4582 Y1.3349
G3 X1.4615 Y1.3315 I0.0037 J0.0003
G1 X1.4877 Y1.3285
G1 X1.5139 Y1.3254
G3 X1.517 Y1.3265 I0.0004 J0.0037
G1 X1.5243 Y1.3339
G1 X1.5317 Y1.3412
G3 X1.5328 Y1.3439 I-0.0026 J0.0026
G1 Y1.3836
G1 Y1.4234
G3 X1.5322 Y1.4253 I-0.0037 J0.0
G1 X1.5195 Y1.4458
G1 X1.5086 Y1.4632
G1 X1.5288 Y1.4774
G1 X1.5519 Y1.4935
G3 X1.5534 Y1.4966 I-0.0021 J0.003
G1 Y1.5217
G1 Y1.5469
G3 X1.5517 Y1.5501 I-0.0037 J0.0
G1 X1.531 Y1.563
G1 X1.5121 Y1.5748
G1 Y1.6064
G1 Y1.6364
G1 X1.6156
G1 X1.7211
G1 X1.7332 Y1.6218
G1 X1.7443 Y1.6084
G1 X1.7347 Y1.5989
G1 X1.7228 Y1.5869
G3 X1.7217 Y1.5843 I0.0026 J-0.0026
G1 Y1.5626
G1 Y1.5409
G3 X1.7228 Y1.5382 I0.0037 J0.0
G1 X1.7352 Y1.5258
G1 X1.7476 Y1.5134
G3 X1.7502 Y1.5124 I0.0026 J0.0026
G1 X1.7719
G1 X1.7936
G3 X1.7962 Y1.5134 I0.0 J0.0037
G1 X1.8086 Y1.5258
G1 X1.821 Y1.5382
G3 X1.8221 Y1.5409 I-0.0026 J0.0026
G1 Y1.5626
G1 Y1.5843
G3 X1.821 Y1.5869 I-0.0037 J0.0
G1 X1.8086 Y1.5993
G1 X1.7989 Y1.6091
G1 X1.8086 Y1.6188
G1 X1.821 Y1.6312
G3 X1.8221 Y1.6339 I-0.0026 J0.0026
G1 Y1.6556
G1 Y1.6773
G3 X1.821 Y1.6799 I-0.0037 J0.0
G1 X1.8086 Y1.6923
G1 X1.7962 Y1.7047
G3 X1.7936 Y1.7058 I-0.0026 J-0.0026
G1 X1.7711
G1 X1.7486
G3 X1.7457 Y1.7044 I0.0 J-0.0037
G1 X1.7329 Y1.6889
G1 X1.7211 Y1.6748
G1 X1.6621
G1 X1.6051
G1 Y1.6905
G1 Y1.7081
G1 X1.6193 Y1.7199
G1 X1.6348 Y1.7327
G3 X1.6361 Y1.7356 I-0.0024 J0.0029
G1 Y1.7581
G1 Y1.7806
G3 X1.635 Y1.7832 I-0.0037 J0.0
G1 X1.6226 Y1.7956
G1 X1.6102 Y1.808
G3 X1.6076 Y1.8091 I-0.0026 J-0.0026
G1 X1.5859
G1 X1.5642
G3 X1.5616 Y1.808 I0.0 J-0.0037
G1 X1.5492 Y1.7956
G1 X1.5368 Y1.7832
G3 X1.5357 Y1.7806 I0.0026 J-0.0026
G1 Y1.7581
G1 Y1.7356
G3 X1.537 Y1.7327 I0.0037 J0.0
G1 X1.5525 Y1.7199
G1 X1.5667 Y1.7081
G1 Y1.6905
G1 Y1.6748
G1 X1.5239
G1 X1.4774
G3 X1.4737 Y1.6711 I0.0 J-0.0037
G1 Y1.6148
G1 Y1.5607
G1 X1.4651 Y1.5554
G1 X1.4548 Y1.549
G3 X1.453 Y1.5459 I0.002 J-0.0032
G1 Y1.5257
G3 Y1.5255 I0.0037 J0.0
G3 X1.4548 Y1.5119 I0.0723 J0.0026
G3 X1.4594 Y1.497 I0.0963 J0.0216
G3 X1.4596 Y1.4967 I0.0035 J0.0014
G1 X1.4658 Y1.4839
G3 X1.466 Y1.4836 I0.0033 J0.0016
G1 X1.4773 Y1.4655
G1 X1.4651 Y1.4429
G1 X1.452 Y1.4183
G3 X1.4515 Y1.4162 I0.0033 J-0.0018
G1 X1.4549 Y1.3756
G1 X1.4566 Y1.354
G0 Z0.125
G0 X1.4618 Y1.1426
G1 F20.0 Z-0.0045
G3 F40.0 X1.4582 Y1.1392 I0.0001 J-0.0037
G1 X1.4549 Y1.0986
G1 X1.4515 Y1.0579
G3 X1.452 Y1.0559 I0.0037 J-0.0003
G1 X1.4651 Y1.0313
G1 X1.4773 Y1.0086
G1 X1.466 Y0.9905
G3 X1.4659 Y0.9904 I0.0032 J-0.002
G3 X1.4595 Y0.9773 I0.1062 J-0.0601
G3 X1.4548 Y0.9621 I0.0618 J-0.0275
G3 X1.4547 Y0.9619 I0.0037 J-0.0007
G1 X1.453 Y0.949
G3 Y0.9485 I0.0037 J-0.0005
G1 Y0.9283
G3 X1.4548 Y0.9251 I0.0037 J0.0
G1 X1.4651 Y0.9187
G1 X1.4737 Y0.9134
G1 Y0.8593
G1 Y0.8031
G3 X1.4774 Y0.7994 I0.0037 J0.0
G1 X1.5239
G1 X1.5667
G1 Y0.7837
G1 Y0.766
G1 X1.5525 Y0.7543
G1 X1.537 Y0.7414
G3 X1.5357 Y0.7385 I0.0024 J-0.0029
G1 Y0.716
G1 Y0.6935
G3 X1.5368 Y0.6909 I0.0037 J0.0
G1 X1.5492 Y0.6785
G1 X1.5616 Y0.6661
G3 X1.5642 Y0.665 I0.0026 J0.0026
G1 X1.5859
G1 X1.6076
G3 X1.6102 Y0.6661 I0.0 J0.0037
G1 X1.6226 Y0.6785
G1 X1.635 Y0.6909
G3 X1.6361 Y0.6935 I-0.0026 J0.0026
G1 Y0.716
G1 Y0.7385
G3 X1.6348 Y0.7414 I-0.0037 J0.0
G1 X1.6193 Y0.7543
G1 X1.6051 Y0.766
G1 Y0.7837
G1 Y0.7994
G1 X1.6621
G1 X1.7211
G1 X1.7329 Y0.7852
G1 X1.7457 Y0.7697
G3 X1.7486 Y0.7684 I0.0029 J0.0024
G1 X1.7711
G1 X1.7936
G3 X1.7962 Y0.7694 I0.0 J0.0037
G1 X1.8086 Y0.7818
G1 X1.821 Y0.7942
G3 X1.8221 Y0.7969 I-0.0026 J0.0026
G1 Y0.8186
G1 Y0.8403
G3 X1.821 Y0.8429 I-0.0037 J0.0
G1 X1.8086 Y0.8553
G1 X1.7989 Y0.8651
G1 X1.8086 Y0.8748
G1 X1.821 Y0.8872
G3 X1.8221 Y0.8899 I-0.0026 J0.0026
G1 Y0.9116
G1 Y0.9333
G3 X1.821 Y0.9359 I-0.0037 J0.0
G1 X1.8086 Y0.9483
G1 X1.7962 Y0.9607
G3 X1.7936 Y0.9618 I-0.0026 J-0.0026
G1 X1.7719
G1 X1.7502
G3 X1.7476 Y0.9607 I0.0 J-0.0037
G1 X1.7352 Y0.9483
G1 X1.7228 Y0.9359
G3 X1.7217 Y0.9333 I0.0026 J-0.0026
G1 Y0.9116
G1 Y0.8899
G3 X1.7228 Y0.8872 I0.0037 J0.0
G1 X1.7347 Y0.8753
G1 X1.7443 Y0.8657
G1 X1.7332 Y0.8524
G1 X1.7211 Y0.8378
G1 X1.6156
G1 X1.5121
G1 Y0.8678
G1 Y0.8994
G1 X1.531 Y0.9112
G1 X1.5517 Y0.9241
G3 X1.5535 Y0.9272 I-0.002 J0.0032
G1 Y0.9524
G1 Y0.9776
G3 X1.5519 Y0.9806 I-0.0037 J0.0
G1 X1.5293 Y0.9964
G1 X1.5094 Y1.0103
G1 X1.5208 Y1.0316
G1 X1.5338 Y1.0559
G3 X1.5342 Y1.0579 I-0.0033 J0.0018
G1 X1.5309 Y1.0986
G1 X1.5276 Y1.1392
G3 X1.5239 Y1.1426 I-0.0037 J-0.0003
G1 X1.4929
G1 X1.4619
G1 X1.4618
G0 Z0.125
G0 X1.4243 Y1.1392
G1 F20.0 Z-0.0045
G3 F40.0 X1.4206 Y1.1426 I-0.0037 J-0.0003
G1 X1.3896
G1 X1.3586
G3 X1.3549 Y1.1392 I0.0 J-0.0037
G1 X1.3515 Y1.0986
G1 X1.3482 Y1.0579
G3 X1.3486 Y1.0559 I0.0037 J-0.0003
G1 X1.3616 Y1.0316
G1 X1.373 Y1.0103
G1 X1.3532 Y0.9964
G1 X1.3306 Y0.9806
G3 X1.329 Y0.9776 I0.0021 J-0.003
G1 Y0.9524
G1 Y0.9272
G3 X1.3308 Y0.9241 I0.0037 J0.0
G1 X1.3514 Y0.9112
G1 X1.3703 Y0.8994
G1 Y0.8845
G1 Y0.8694
G1 X1.3562 Y0.8576
G1 X1.3407 Y0.8447
G3 X1.3393 Y0.8419 I0.0024 J-0.0029
G1 Y0.8186
G1 Y0.7953
G3 X1.3407 Y0.7924 I0.0037 J0.0
G1 X1.3564 Y0.7793
G1 X1.3692 Y0.7687
G1 X1.3561 Y0.7542
G1 X1.3403 Y0.7368
G3 X1.3393 Y0.7343 I0.0028 J-0.0025
G1 Y0.7131
G1 Y0.6919
G3 X1.3407 Y0.6891 I0.0037 J0.0
G1 X1.3562 Y0.6762
G3 X1.3563 Y0.6761 I0.0024 J0.0029
G2 X1.3632 Y0.6688 I-0.0171 J-0.0231
G1 X1.3686 Y0.6599
G2 X1.3703 Y0.6529 I-0.034 J-0.0124
G2 X1.3687 Y0.6468 I-0.0124 J0.0
G3 X1.3684 Y0.646 I0.0032 J-0.0018
G2 X1.3638 Y0.6383 I-0.0174 J0.0052
G3 X1.3637 Y0.6382 I0.0026 J-0.0026
G1 X1.356 Y0.6301
G1 X1.3407 Y0.6174
G3 X1.3393 Y0.6145 I0.0024 J-0.0029
G1 Y0.592
G1 Y0.5695
G3 X1.3404 Y0.5669 I0.0037 J0.0
G1 X1.3528 Y0.5545
G1 X1.3652 Y0.5421
G3 X1.3679 Y0.541 I0.0026 J0.0026
G1 X1.3896
G1 X1.4113
G3 X1.4139 Y0.5421 I0.0 J0.0037
G1 X1.4263 Y0.5545
G1 X1.4387 Y0.5669
G3 X1.4398 Y0.5695 I-0.0026 J0.0026
G1 Y0.592
G1 Y0.6145
G3 X1.4384 Y0.6174 I-0.0037 J0.0
G1 X1.4229 Y0.6303
G3 X1.4228 Y0.6304 I-0.0024 J-0.0029
G2 X1.4159 Y0.6376 I0.0172 J0.0232
G1 X1.4106 Y0.6466
G2 X1.4088 Y0.6535 I0.034 J0.0124
G2 X1.4104 Y0.6597 I0.0124 J0.0
G3 X1.4108 Y0.6605 I-0.0032 J0.0018
G2 X1.4154 Y0.6682 I0.0174 J-0.0052
G3 X1.4155 Y0.6683 I-0.0026 J0.0026
G1 X1.4231 Y0.6764
G1 X1.4384 Y0.6891
G3 X1.4398 Y0.6919 I-0.0024 J0.0029
G1 Y0.7152
G1 Y0.7385
G3 X1.4384 Y0.7414 I-0.0037 J0.0
G1 X1.4227 Y0.7545
G1 X1.4099 Y0.7651
G1 X1.4231 Y0.7796
G1 X1.4388 Y0.797
G3 X1.4398 Y0.7995 I-0.0028 J0.0025
G1 Y0.8207
G1 Y0.8419
G3 X1.4384 Y0.8447 I-0.0037 J0.0
G1 X1.4229 Y0.8576
G1 X1.4088 Y0.8694
G1 Y0.8916
G1 Y0.9134
G1 X1.4174 Y0.9187
G1 X1.4277 Y0.9251
G3 X1.4294 Y0.9283 I-0.002 J0.0032
G1 Y0.9485
G3 Y0.9486 I-0.0037 J0.0
G3 X1.4277 Y0.9622 I-0.0723 J-0.0026
G3 X1.423 Y0.9772 I-0.0963 J-0.0216
G3 X1.4229 Y0.9774 I-0.0035 J-0.0014
G3 X1.4166 Y0.9902 I-0.8906 J-0.4278
G3 X1.4165 Y0.9905 I-0.0033 J-0.0017
G1 X1.4052 Y1.0086
G1 X1.4173 Y1.0313
G1 X1.4305 Y1.0559
G3 X1.4309 Y1.0579 I-0.0033 J0.0018
G1 X1.4276 Y1.0986
G1 X1.4243 Y1.1392
G0 Z0.125
G0 X1.3215 Y1.1319
G1 F20.0 Z-0.0045
G1 F40.0 X1.3209 Y1.1392
G3 X1.3172 Y1.1426 I-0.0037 J-0.0003
G1 X1.2914
G1 X1.2656
G3 X1.2618 Y1.1388 I0.0 J-0.0037
G1 X1.2658 Y0.9451
G1 X1.2697 Y0.7551
G1 X1.2566
G1 X1.2397
G3 X1.236 Y0.7514 I0.0 J-0.0037
G1 Y0.6958
G1 Y0.642
G1 X1.2219 Y0.6303
G1 X1.2064 Y0.6174
G3 X1.205 Y0.6145 I0.0024 J-0.0029
G1 Y0.5912
G1 Y0.5679
G3 X1.2064 Y0.5651 I0.0037 J0.0
G1 X1.2219 Y0.5522
G1 X1.236 Y0.5405
G1 Y0.5189
G1 Y0.4973
G1 X1.2219 Y0.4856
G1 X1.2064 Y0.4727
G3 X1.205 Y0.4699 I0.0024 J-0.0029
G1 Y0.4466
G1 Y0.4233
G3 X1.2064 Y0.4204 I0.0037 J0.0
G1 X1.2219 Y0.4075
G1 X1.236 Y0.3958
G1 Y0.3678
G1 Y0.3381
G3 X1.2397 Y0.3344 I0.0037 J0.0
G1 X1.3069
G1 X1.3703
G1 Y0.2089
G1 Y0.0797
G3 X1.3741 Y0.076 I0.0037 J0.0
G1 X1.5321
G1 X1.6901
G3 X1.6927 Y0.0771 I0.0 J0.0037
G1 X1.7362 Y0.1214
G1 X1.7797 Y0.1657
G3 X1.7808 Y0.1684 I-0.0027 J0.0026
G1 Y0.4289
G1 Y0.6857
G1 X1.8649
G1 X1.9527
G3 X1.9564 Y0.6894 I0.0 J0.0037
G1 Y0.9012
G1 Y1.1131
G3 X1.9527 Y1.1168 I-0.0037 J0.0
G1 X1.8145
G1 X1.678
G1 X1.6663 Y1.1309
G1 X1.6534 Y1.1464
G3 X1.6505 Y1.1478 I-0.0029 J-0.0024
G1 X1.628
G1 X1.6055
G3 X1.6029 Y1.1467 I0.0 J-0.0037
G1 X1.5905 Y1.1343
G1 X1.5781 Y1.1219
G3 X1.577 Y1.1193 I0.0026 J-0.0026
G1 Y1.0976
G1 Y1.0759
G3 X1.5781 Y1.0732 I0.0037 J0.0
G1 X1.5905 Y1.0608
G1 X1.6029 Y1.0484
G3 X1.6055 Y1.0474 I0.0026 J0.0026
G1 X1.628
G1 X1.6505
G3 X1.6534 Y1.0487 I0.0 J0.0037
G1 X1.6663 Y1.0642
G1 X1.678 Y1.0784
G1 X1.799
G1 X1.918
G1 Y0.9012
G1 Y0.7241
G1 X1.8339
G1 X1.7461
G3 X1.7423 Y0.7204 I0.0 J-0.0037
G1 Y0.4591
G1 Y0.1993
G1 X1.6991 Y0.1569
G1 X1.6559 Y0.1145
G1 X1.5313
G1 X1.4088
G1 Y0.2399
G1 Y0.3691
G3 X1.4051 Y0.3728 I-0.0037 J0.0
G1 X1.3379
G1 X1.2745
G1 Y0.3833
G1 Y0.3958
G1 X1.2886 Y0.4075
G1 X1.3041 Y0.4204
G3 X1.3054 Y0.4233 I-0.0024 J0.0029
G1 Y0.4466
G1 Y0.4699
G3 X1.3041 Y0.4727 I-0.0037 J0.0
G1 X1.2886 Y0.4856
G1 X1.2745 Y0.4973
G1 Y0.5189
G1 Y0.5405
G1 X1.2886 Y0.5522
G1 X1.3041 Y0.5651
G3 X1.3054 Y0.5679 I-0.0024 J0.0029
G1 Y0.5912
G1 Y0.6145
G3 X1.3041 Y0.6174 I-0.0037 J0.0
G1 X1.2886 Y0.6303
G1 X1.2745 Y0.642
G1 Y0.6803
G1 Y0.7167
G1 X1.2862
G1 X1.3017
G3 X1.3054 Y0.7204 I0.0 J0.0037
G1 Y0.8733
G1 Y1.0247
G1 X1.3154 Y1.0346
G1 X1.3264 Y1.0456
G3 X1.3274 Y1.0485 I-0.0026 J0.0026
G1 X1.3242 Y1.0939
G1 X1.3215 Y1.1319
G0 Z0.125
G0 X1.5626 Y0.6308
G1 F20.0 Z-0.0045
G3 F40.0 X1.5616 Y0.63 I0.0016 J-0.0034
G1 X1.5492 Y0.6176
G1 X1.5368 Y0.6052
G3 X1.5357 Y0.6026 I0.0026 J-0.0026
G1 Y0.5801
G1 Y0.5576
G3 X1.537 Y0.5547 I0.0037 J0.0
G1 X1.5525 Y0.5419
G1 X1.5667 Y0.5301
G1 Y0.5141
G1 Y0.4979
G1 X1.549 Y0.4819
G1 X1.5312 Y0.4658
G1 X1.4856
G1 X1.4403
G1 X1.4286 Y0.4799
G1 X1.4157 Y0.4954
G3 X1.4129 Y0.4968 I-0.0029 J-0.0024
G1 X1.3904
G1 X1.3679
G3 X1.3652 Y0.4957 I0.0 J-0.0037
G1 X1.3528 Y0.4833
G1 X1.3404 Y0.4709
G3 X1.3393 Y0.4683 I0.0026 J-0.0026
G1 Y0.4466
G1 Y0.4249
G3 X1.3404 Y0.4222 I0.0037 J0.0
G1 X1.3528 Y0.4098
G1 X1.3652 Y0.3974
G3 X1.3679 Y0.3964 I0.0026 J0.0026
G1 X1.3904
G1 X1.4129
G3 X1.4157 Y0.3977 I0.0 J0.0037
G1 X1.4286 Y0.4132
G1 X1.4403 Y0.4274
G1 X1.4874
G1 X1.5345
G1 X1.5505 Y0.4097
G3 X1.5508 Y0.4094 I0.0028 J0.0025
G2 X1.5586 Y0.3994 I-0.0242 J-0.027
G3 X1.5592 Y0.3986 I0.0033 J0.0017
G2 X1.5645 Y0.3895 I-0.0153 J-0.0149
G3 X1.5649 Y0.3885 I0.0036 J0.001
G2 X1.5667 Y0.3826 I-0.01 J-0.0062
G2 X1.565 Y0.377 I-0.0148 J0.0014
G3 X1.5647 Y0.3764 I0.0033 J-0.0018
G2 X1.5602 Y0.3695 I-0.0147 J0.0047
G3 X1.56 Y0.3693 I0.0025 J-0.0028
G1 X1.5524 Y0.3615
G1 X1.537 Y0.3487
G3 X1.5357 Y0.3459 I0.0024 J-0.0029
G1 Y0.3226
G1 Y0.2993
G3 X1.537 Y0.2964 I0.0037 J0.0
G1 X1.5525 Y0.2835
G1 X1.5667 Y0.2718
G1 Y0.2554
G1 Y0.239
G1 X1.5525 Y0.2273
G1 X1.537 Y0.2144
G3 X1.5357 Y0.2115 I0.0024 J-0.0029
G1 Y0.189
G1 Y0.1665
G3 X1.5368 Y0.1639 I0.0037 J0.0
G1 X1.5492 Y0.1515
G1 X1.5616 Y0.1391
G3 X1.5642 Y0.138 I0.0026 J0.0026
G1 X1.5859
G1 X1.6076
G3 X1.6102 Y0.1391 I0.0 J0.0037
G1 X1.6226 Y0.1515
G1 X1.635 Y0.1639
G3 X1.6361 Y0.1665 I-0.0026 J0.0026
G1 Y0.189
G1 Y0.2115
G3 X1.6348 Y0.2144 I-0.0037 J0.0
G1 X1.6193 Y0.2273
G1 X1.6051 Y0.239
G1 Y0.2554
G1 Y0.2718
G1 X1.6193 Y0.2835
G1 X1.6348 Y0.2964
G3 X1.6361 Y0.2993 I-0.0024 J0.0029
G1 Y0.3226
G1 Y0.3459
G3 X1.6348 Y0.3487 I-0.0037 J0.0
G1 X1.6193 Y0.3616
G3 X1.6191 Y0.3617 I-0.0024 J-0.0029
G2 X1.6122 Y0.369 I0.0171 J0.023
G1 X1.6069 Y0.3779
G2 X1.6051 Y0.3849 I0.0338 J0.0123
G2 X1.6067 Y0.391 I0.0124 J0.0
G3 X1.6071 Y0.3918 I-0.0032 J0.0018
G2 X1.6117 Y0.3995 I0.0174 J-0.0052
G3 X1.6118 Y0.3996 I-0.0026 J0.0026
G1 X1.6194 Y0.4077
G1 X1.6348 Y0.4204
G3 X1.6361 Y0.4233 I-0.0024 J0.0029
G1 Y0.4466
G1 Y0.4699
G3 X1.6348 Y0.4727 I-0.0037 J0.0
G1 X1.6193 Y0.4856
G1 X1.6051 Y0.4974
G1 Y0.5137
G1 Y0.5301
G1 X1.6193 Y0.5419
G1 X1.6348 Y0.5547
G3 X1.6361 Y0.5576 I-0.0024 J0.0029
G1 Y0.5801
G1 Y0.6026
G3 X1.635 Y0.6052 I-0.0037 J0.0
G1 X1.6226 Y0.6176
G1 X1.6102 Y0.63
G3 X1.6076 Y0.6311 I-0.0026 J-0.0026
G1 X1.5859
G1 X1.5642
G3 X1.5626 Y0.6308 I0.0 J-0.0037
G0 Z0.125
G0 X1.9387 Y0.6029
G1 F20.0 Z-0.0045
G3 F40.0 Y0.6026 I0.0037 J-0.0003
G1 Y0.5809
G1 Y0.5592
G3 X1.9398 Y0.5566 I0.0037 J0.0
G1 X1.9522 Y0.5442
G1 X1.9646 Y0.5318
G3 X1.9672 Y0.5307 I0.0026 J0.0026
G1 X1.9876
G1 X2.0079
G3 X2.0104 Y0.5316 I0.0 J0.0037
G1 X2.0295 Y0.5489
G1 X2.046 Y0.5638
G1 X2.0723 Y0.5386
G1 X2.1011 Y0.5111
G3 X2.1037 Y0.51 I0.0026 J0.0027
G1 X2.1246
G1 X2.1455
G3 X2.1482 Y0.5112 I0.0 J0.0037
G1 X2.1706 Y0.5351
G1 X2.1931 Y0.559
G3 X2.1941 Y0.5616 I-0.0027 J0.0025
G1 Y0.5824
G1 Y0.6031
G3 X2.1929 Y0.6058 I-0.0037 J0.0
G1 X2.169 Y0.6283
G1 X2.1451 Y0.6508
G3 X2.1426 Y0.6518 I-0.0025 J-0.0027
G1 X2.1231
G1 X2.1037
G3 X2.1011 Y0.6508 I0.0 J-0.0037
G1 X2.0723 Y0.6232
G1 X2.046 Y0.598
G1 X2.0295 Y0.6129
G1 X2.0104 Y0.6302
G3 X2.0079 Y0.6311 I-0.0025 J-0.0028
G1 X1.9876
G1 X1.9672
G3 X1.9646 Y0.63 I0.0 J-0.0037
G1 X1.9522 Y0.6176
G1 X1.9398 Y0.6052
G3 X1.9387 Y0.6029 I0.0026 J-0.0026
G0 Z0.125
G0 X1.9663 Y0.4967
G1 F20.0 Z-0.0045
G3 F40.0 X1.9646 Y0.4957 I0.0009 J-0.0036
G1 X1.9522 Y0.4833
G1 X1.9398 Y0.4709
G3 X1.9387 Y0.4683 I0.0026 J-0.0026
G1 Y0.4466
G1 Y0.4249
G3 X1.9398 Y0.4222 I0.0037 J0.0
G1 X1.9522 Y0.4098
G1 X1.9646 Y0.3974
G3 X1.9672 Y0.3964 I0.0026 J0.0026
G1 X1.9897
G1 X2.0122
G3 X2.0151 Y0.3977 I0.0 J0.0037
G1 X2.0279 Y0.4132
G1 X2.0397 Y0.4274
G1 X2.0969
G1 X2.1542
G1 X2.1774 Y0.4027
G1 X2.2016 Y0.3769
G3 X2.2043 Y0.3757 I0.0027 J0.0025
G1 X2.2266
G1 X2.2488
G3 X2.2515 Y0.3769 I0.0 J0.0037
G1 X2.274 Y0.4008
G1 X2.2964 Y0.4247
G3 X2.2975 Y0.4272 I-0.0027 J0.0025
G1 Y0.448
G1 Y0.4688
G3 X2.2963 Y0.4715 I-0.0037 J0.0
G1 X2.2724 Y0.494
G1 X2.2484 Y0.5165
G3 X2.2459 Y0.5175 I-0.0025 J-0.0027
G1 X2.2251
G1 X2.2043
G3 X2.2016 Y0.5163 I0.0 J-0.0037
G1 X2.1774 Y0.4905
G1 X2.1542 Y0.4658
G1 X2.0969
G1 X2.0397
G1 X2.0279 Y0.4799
G1 X2.0151 Y0.4954
G3 X2.0122 Y0.4968 I-0.0029 J-0.0024
G1 X1.9897
G1 X1.9672
G3 X1.9663 Y0.4967 I0.0 J-0.0037
G0 Z0.125
G0 X1.9672 Y0.3728
G1 F20.0 Z-0.0045
G3 F40.0 X1.9646 Y0.3717 I0.0 J-0.0037
G1 X1.9522 Y0.3593
G1 X1.9398 Y0.3469
G3 X1.9387 Y0.3443 I0.0026 J-0.0026
G1 Y0.3226
G1 Y0.3009
G3 X1.9398 Y0.2982 I0.0037 J0.0
G1 X1.9522 Y0.2858
G1 X1.9646 Y0.2734
G3 X1.9672 Y0.2724 I0.0026 J0.0026
G1 X1.9876
G1 X2.0079
G3 X2.0104 Y0.2733 I0.0 J0.0037
G1 X2.0295 Y0.2906
G1 X2.046 Y0.3055
G1 X2.0723 Y0.2803
G1 X2.1011 Y0.2527
G3 X2.1037 Y0.2517 I0.0026 J0.0027
G1 X2.1246
G1 X2.1455
G3 X2.1482 Y0.2529 I0.0 J0.0037
G1 X2.1706 Y0.2768
G1 X2.1931 Y0.3007
G3 X2.1941 Y0.3032 I-0.0027 J0.0025
G1 Y0.324
G1 Y0.3448
G3 X2.1929 Y0.3475 I-0.0037 J0.0
G1 X2.169 Y0.37
G1 X2.1451 Y0.3925
G3 X2.1426 Y0.3935 I-0.0025 J-0.0027
G1 X2.1231
G1 X2.1037
G3 X2.1011 Y0.3924 I0.0 J-0.0037
G1 X2.0723 Y0.3648
G1 X2.046 Y0.3396
G1 X2.0295 Y0.3546
G1 X2.0104 Y0.3718
G3 X2.0079 Y0.3728 I-0.0025 J-0.0028
G1 X1.9876
G1 X1.9672
G0 Z0.125
G0 Y0.2385
G1 F20.0 Z-0.0045
G3 F40.0 X1.9646 Y0.2374 I0.0 J-0.0037
G1 X1.9522 Y0.225
G1 X1.9398 Y0.2126
G3 X1.9387 Y0.2099 I0.0026 J-0.0026
G1 Y0.1882
G1 Y0.1665
G3 X1.9398 Y0.1639 I0.0037 J0.0
G1 X1.9522 Y0.1515
G1 X1.9646 Y0.1391
G3 X1.9672 Y0.138 I0.0026 J0.0026
G1 X1.9897
G1 X2.0122
G3 X2.0151 Y0.1394 I0.0 J0.0037
G1 X2.0279 Y0.1549
G1 X2.0397 Y0.169
G1 X2.1012 Y0.1687
G1 X2.1632 Y0.1684
G1 X2.1923 Y0.1427
G1 X2.2202 Y0.1182
G1 X2.2097 Y0.1014
G3 X2.2096 Y0.1013 I0.0032 J-0.002
G3 X2.2034 Y0.0886 I0.1194 J-0.067
G3 X2.1987 Y0.0741 I0.0563 J-0.0259
G3 Y0.0739 I0.0037 J-0.0007
G1 X2.197 Y0.0618
G3 Y0.0613 I0.0037 J-0.0005
G1 Y0.0425
G3 X2.1981 Y0.0399 I0.0037 J0.0
G1 X2.2105 Y0.0275
G1 X2.2229 Y0.0151
G3 X2.2255 Y0.014 I0.0026 J0.0026
G1 X2.2472
G1 X2.2689
G3 X2.2716 Y0.0151 I0.0 J0.0037
G1 X2.284 Y0.0275
G1 X2.2964 Y0.0399
G3 X2.2975 Y0.0425 I-0.0026 J0.0026
G1 Y0.0662
G1 Y0.0899
G3 X2.2957 Y0.0931 I-0.0037 J0.0
G1 X2.275 Y0.106
G1 X2.2561 Y0.1178
G1 Y0.1269
G2 X2.2584 Y0.1335 I0.019 J-0.0028
G1 X2.2657 Y0.1441
G2 X2.2754 Y0.1543 I0.0401 J-0.0284
G3 X2.2756 Y0.1545 I-0.0023 J0.0029
G1 X2.2962 Y0.1732
G3 X2.2975 Y0.1759 I-0.0025 J0.0028
G1 Y0.1984
G1 Y0.2208
G3 X2.2963 Y0.2235 I-0.0037 J0.0
G1 X2.2724 Y0.246
G1 X2.2484 Y0.2685
G3 X2.2459 Y0.2695 I-0.0025 J-0.0027
G1 X2.2242
G1 X2.2026
G3 X2.1997 Y0.2681 I0.0 J-0.0037
G1 X2.1736 Y0.2371
G1 X2.1487 Y0.2075
G1 X2.0942
G1 X2.0397
G1 X2.0279 Y0.2216
G1 X2.0151 Y0.2371
G3 X2.0122 Y0.2385 I-0.0029 J-0.0024
G1 X1.9897
G1 X1.9672
G0 Z0.125
G0 X1.8398 Y0.1111
G1 F20.0 Z-0.0045
G1 F40.0 X1.8376 Y0.1134
G3 X1.8349 Y0.1145 I-0.0026 J-0.0026
G1 X1.8132
G1 X1.7915
G3 X1.7889 Y0.1134 I0.0 J-0.0037
G1 X1.7765 Y0.101
G1 X1.7641 Y0.0886
G3 X1.763 Y0.0859 I0.0026 J-0.0026
G1 Y0.0673
G1 Y0.0525
G1 X1.5187
G1 X1.2745
G1 Y0.1301
G1 Y0.2098
G1 X1.2886 Y0.2215
G1 X1.3041 Y0.2344
G3 X1.3054 Y0.2373 I-0.0024 J0.0029
G1 Y0.2598
G1 Y0.2823
G3 X1.3044 Y0.2849 I-0.0037 J0.0
G1 X1.292 Y0.2973
G1 X1.2796 Y0.3097
G3 X1.2769 Y0.3108 I-0.0026 J-0.0026
G1 X1.2552
G1 X1.2335
G3 X1.2309 Y0.3097 I0.0 J-0.0037
G1 X1.2185 Y0.2973
G1 X1.2061 Y0.2849
G3 X1.205 Y0.2823 I0.0026 J-0.0026
G1 Y0.2598
G1 Y0.2373
G3 X1.2064 Y0.2344 I0.0037 J0.0
G1 X1.2217 Y0.2216
G1 X1.2294 Y0.214
G3 X1.2297 Y0.2138 I0.0026 J0.0026
G2 X1.2341 Y0.2076 I-0.0097 J-0.0116
G1 X1.236 Y0.2019
G1 Y0.1971
G1 X1.1881
G1 X1.1401
G1 Y0.2022
G2 X1.1417 Y0.2068 I0.0126 J-0.0017
G1 X1.1471 Y0.2145
G2 X1.1541 Y0.2214 I0.0267 J-0.02
G3 X1.1543 Y0.2215 I-0.0022 J0.003
G1 X1.1698 Y0.2344
G3 X1.1711 Y0.2373 I-0.0024 J0.0029
G1 Y0.2598
G1 Y0.2823
G3 X1.17 Y0.2849 I-0.0037 J0.0
G1 X1.1576 Y0.2973
G1 X1.1452 Y0.3097
G3 X1.1426 Y0.3108 I-0.0026 J-0.0026
G1 X1.1209
G1 X1.0992
G3 X1.0966 Y0.3097 I0.0 J-0.0037
G1 X1.0842 Y0.2973
G1 X1.0718 Y0.2849
G3 X1.0707 Y0.2823 I0.0026 J-0.0026
G1 Y0.2598
G1 Y0.2373
G3 X1.072 Y0.2344 I0.0037 J0.0
G1 X1.0875 Y0.2215
G1 X1.1017 Y0.2098
G1 Y0.1301
G1 Y0.0525
G1 X0.8316
G1 X0.5614
G1 Y0.3151
G1 Y0.5814
G3 X0.5604 Y0.5841 I-0.0037 J0.0
G1 X0.4829 Y0.661
G1 X0.4064 Y0.7369
G1 Y0.8351
G1 Y0.9331
G1 X0.4184 Y0.943
G1 X0.4307 Y0.9533
G1 X0.4911 Y0.9564
G1 X0.5528 Y0.9595
G3 X0.5563 Y0.9628 I-0.0002 J0.0037
G1 X0.5596 Y0.9919
G1 X0.5629 Y1.0209
G3 X0.5621 Y1.0237 I-0.0037 J0.0004
G1 X0.5497 Y1.0386
G1 X0.5374 Y1.0534
G3 X0.5345 Y1.0548 I-0.0029 J-0.0024
G1 X0.512
G1 X0.4895
G3 X0.4869 Y1.0537 I0.0 J-0.0037
G1 X0.4745 Y1.0413
G1 X0.4621 Y1.0289
G3 X0.461 Y1.0263 I0.0026 J-0.0026
G1 Y1.0077
G1 Y0.9928
G1 X0.4492
G1 X0.4375
G1 Y1.0077
G1 Y1.0263
G3 X0.4364 Y1.0289 I-0.0037 J0.0
G1 X0.424 Y1.0413
G1 X0.4116 Y1.0537
G3 X0.4089 Y1.0548 I-0.0026 J-0.0026
G1 X0.3872
G1 X0.3655
G3 X0.3629 Y1.0537 I0.0 J-0.0037
G1 X0.3505 Y1.0413
G1 X0.3381 Y1.0289
G3 X0.337 Y1.0263 I0.0026 J-0.0026
G1 Y0.9973
G1 Y0.9721
G1 X0.2281
G1 X0.0767 Y0.9734
G1 Y1.1118
G1 X0.1006
G1 X0.2695
G3 X0.2732 Y1.1155 I0.0 J0.0037
G1 Y1.3718
G3 X0.2695 Y1.3756 I-0.0037 J0.0
G1 X0.1006
G1 X0.0782
G1 X0.0768 Y1.5016
G1 X0.2281 Y1.502
G1 X0.337
G1 Y1.4768
G1 Y1.4479
G3 X0.3381 Y1.4452 I0.0037 J0.0
G1 X0.3505 Y1.4328
G1 X0.3629 Y1.4204
G3 X0.3655 Y1.4194 I0.0026 J0.0026
G1 X0.3872
G1 X0.4089
G3 X0.4116 Y1.4204 I0.0 J0.0037
G1 X0.424 Y1.4328
G1 X0.4364 Y1.4452
G3 X0.4375 Y1.4479 I-0.0026 J0.0026
G1 Y1.4665
G1 Y1.4814
G1 X0.4492
G1 X0.461
G1 Y1.4665
G1 Y1.4479
G3 X0.4621 Y1.4452 I0.0037 J0.0
G1 X0.4745 Y1.4328
G1 X0.4869 Y1.4204
G3 X0.4895 Y1.4194 I0.0026 J0.0026
G1 X0.512
G1 X0.5345
G3 X0.5374 Y1.4207 I0.0 J0.0037
G1 X0.5497 Y1.4356
G1 X0.5621 Y1.4504
G3 X0.5629 Y1.4532 I-0.0029 J0.0024
G1 X0.5596 Y1.4823
G1 X0.5563 Y1.5113
G3 X0.5528 Y1.5146 I-0.0037 J-0.0004
G1 X0.4911 Y1.5178
G1 X0.4307 Y1.5209
G1 X0.4184 Y1.5311
G1 X0.4064 Y1.541
G1 Y1.639
G1 Y1.7372
G1 X0.4829 Y1.8131
G1 X0.5604 Y1.8901
G3 X0.5614 Y1.8927 I-0.0026 J0.0026
G1 Y2.1591
G1 Y2.4217
G1 X0.8316
G1 X1.1017
G1 Y2.344
G1 Y2.2644
G1 X1.0875 Y2.2526
G1 X1.072 Y2.2397
G3 X1.0707 Y2.2369 I0.0024 J-0.0029
G1 Y2.2144
G1 Y2.1919
G3 X1.0718 Y2.1892 I0.0037 J0.0
G1 X1.0842 Y2.1768
G1 X1.0966 Y2.1644
G3 X1.0992 Y2.1634 I0.0026 J0.0026
G1 X1.1209
G1 X1.1426
G3 X1.1452 Y2.1644 I0.0 J0.0037
G1 X1.1576 Y2.1768
G1 X1.17 Y2.1892
G3 X1.1711 Y2.1919 I-0.0026 J0.0026
G1 Y2.2144
G1 Y2.2369
G3 X1.1698 Y2.2397 I-0.0037 J0.0
G1 X1.1544 Y2.2525
G1 X1.1467 Y2.2601
G3 X1.1465 Y2.2603 I-0.0026 J-0.0026
G2 X1.142 Y2.2666 I0.0096 J0.0116
G1 X1.1401 Y2.2723
G1 Y2.277
G1 X1.1881
G1 X1.236
G1 Y2.2719
G2 X1.2345 Y2.2673 I-0.0126 J0.0017
G1 X1.229 Y2.2597
G2 X1.222 Y2.2527 I-0.0267 J0.02
G3 X1.2219 Y2.2526 I0.0022 J-0.003
G1 X1.2064 Y2.2397
G3 X1.205 Y2.2369 I0.0024 J-0.0029
G1 Y2.2144
G1 Y2.1919
G3 X1.2061 Y2.1892 I0.0037 J0.0
G1 X1.2185 Y2.1768
G1 X1.2309 Y2.1644
G3 X1.2335 Y2.1634 I0.0026 J0.0026
G1 X1.2552
G1 X1.2769
G3 X1.2796 Y2.1644 I0.0 J0.0037
G1 X1.292 Y2.1768
G1 X1.3044 Y2.1892
G3 X1.3054 Y2.1919 I-0.0026 J0.0026
G1 Y2.2144
G1 Y2.2369
G3 X1.3041 Y2.2397 I-0.0037 J0.0
G1 X1.2886 Y2.2526
G1 X1.2745 Y2.2643
G1 Y2.344
G1 Y2.4217
G1 X1.5187
G1 X1.763
G1 Y2.4068
G1 Y2.3882
G3 X1.7641 Y2.3856 I0.0037 J0.0
G1 X1.7765 Y2.3732
G1 X1.7889 Y2.3608
G3 X1.7915 Y2.3597 I0.0026 J0.0026
G1 X1.8132
G1 X1.8349
G3 X1.8376 Y2.3608 I0.0 J0.0037
G1 X1.85 Y2.3732
G1 X1.8624 Y2.3856
G3 X1.8634 Y2.3882 I-0.0026 J0.0026
G1 Y2.4099
G1 Y2.4316
G3 X1.8624 Y2.4342 I-0.0037 J0.0
G1 X1.85 Y2.4466
G1 X1.8376 Y2.459
G3 X1.8349 Y2.4601 I-0.0026 J-0.0026
G1 X1.1808
G1 X0.5267
G3 X0.523 Y2.4564 I0.0 J-0.0037
G1 Y2.1901
G1 Y1.9253
G1 X0.4466 Y1.8494
G1 X0.3691 Y1.7724
G3 X0.368 Y1.7698 I0.0026 J-0.0026
G1 Y1.6532
G1 Y1.5405
G1 X0.1971
G1 X0.0347 Y1.5428
G1 X0.0161
G3 X0.0123 Y1.5391 I0.0 J-0.0037
G1 X0.0169 Y0.939
G3 X0.0207 Y0.9353 I0.0037 J0.0
G1 X0.0392
G1 X0.1971 Y0.9337
G1 X0.368
G1 Y0.8209
G1 Y0.7044
G3 X0.3691 Y0.7017 I0.0037 J0.0
G1 X0.4466 Y0.6248
G1 X0.523 Y0.5489
G1 Y0.2841
G1 Y0.0177
G3 X0.5267 Y0.014 I0.0037 J0.0
G1 X1.1808
G1 X1.8349
G3 X1.8376 Y0.0151 I0.0 J0.0037
G1 X1.85 Y0.0275
G1 X1.8624 Y0.0399
G3 X1.8634 Y0.0425 I-0.0026 J0.0026
G1 Y0.0642
G1 Y0.0859
G3 X1.8624 Y0.0886 I-0.0037 J0.0
G1 X1.85 Y0.101
G1 X1.8398 Y0.1111
G0 Z0.125
G0 X2.2157 Y0.7482
G1 F20.0 Z-0.0045
G3 F40.0 X2.2176 Y0.7477 I0.0019 J0.0032
G1 X2.2383
G1 X2.2591
G3 X2.2618 Y0.7489 I0.0 J0.0037
G1 X2.2843 Y0.7728
G1 X2.3068 Y0.7967
G3 X2.3078 Y0.7992 I-0.0027 J0.0025
G1 Y0.82
G1 Y0.8408
G3 X2.3066 Y0.8435 I-0.0037 J0.0
G1 X2.2827 Y0.866
G1 X2.2588 Y0.8885
G3 X2.2562 Y0.8895 I-0.0025 J-0.0027
G1 X2.2388
G1 X2.2251
G1 Y0.9095
G1 Y0.9333
G3 X2.224 Y0.9359 I-0.0037 J0.0
G1 X2.2116 Y0.9483
G1 X2.1992 Y0.9607
G3 X2.1966 Y0.9618 I-0.0026 J-0.0026
G1 X2.1749
G1 X2.1532
G3 X2.1506 Y0.9607 I0.0 J-0.0037
G1 X2.1382 Y0.9483
G1 X2.1258 Y0.9359
G3 X2.1247 Y0.9333 I0.0026 J-0.0026
G1 Y0.9096
G1 Y0.8859
G3 X2.1264 Y0.8828 I0.0037 J0.0
G1 X2.1471 Y0.8699
G1 X2.166 Y0.858
G1 Y0.8282
G1 Y0.7963
G3 X2.1672 Y0.7936 I0.0037 J0.0
G1 X2.1911 Y0.7712
G1 X2.215 Y0.7487
G3 X2.2157 Y0.7482 I0.0025 J0.0027
G0 Z0.125
G0 X2.1967 Y1.5124
G1 F20.0 Z-0.0045
G3 F40.0 X2.1992 Y1.5134 I-0.0001 J0.0037
G1 X2.2116 Y1.5258
G1 X2.224 Y1.5382
G3 X2.2251 Y1.5409 I-0.0026 J0.0026
G1 Y1.5646
G1 Y1.5847
G1 X2.2403
G1 X2.2591
G3 X2.2618 Y1.5859 I0.0 J0.0037
G1 X2.2843 Y1.6098
G1 X2.3068 Y1.6337
G3 X2.3078 Y1.6362 I-0.0027 J0.0025
G1 Y1.657
G1 Y1.6778
G3 X2.3066 Y1.6805 I-0.0037 J0.0
G1 X2.2827 Y1.703
G1 X2.2588 Y1.7255
G3 X2.2562 Y1.7265 I-0.0025 J-0.0027
G1 X2.2354
G1 X2.2147
G3 X2.212 Y1.7253 I0.0 J-0.0037
G1 X2.1895 Y1.7014
G1 X2.167 Y1.6775
G3 X2.166 Y1.6749 I0.0027 J-0.0025
G1 Y1.6445
G1 Y1.6161
G1 X2.1471 Y1.6043
G1 X2.1264 Y1.5914
G3 X2.1247 Y1.5882 I0.002 J-0.0032
G1 Y1.5646
G1 Y1.5409
G3 X2.1258 Y1.5382 I0.0037 J0.0
G1 X2.1382 Y1.5258
G1 X2.1506 Y1.5134
G3 X2.1532 Y1.5124 I0.0026 J0.0026
G1 X2.1749
G1 X2.1966
G1 X2.1967
G0 Z0.125
G0 X2.1461 Y1.8224
G1 F20.0 Z-0.0045
G3 F40.0 X2.1482 Y1.8235 I-0.0006 J0.0037
G1 X2.1706 Y1.8474
G1 X2.1931 Y1.8714
G3 X2.1941 Y1.8739 I-0.0027 J0.0025
G1 Y1.8947
G1 Y1.9155
G3 X2.1929 Y1.9182 I-0.0037 J0.0
G1 X2.169 Y1.9406
G1 X2.1451 Y1.9631
G3 X2.1426 Y1.9641 I-0.0025 J-0.0027
G1 X2.1231
G1 X2.1037
G3 X2.1011 Y1.9631 I0.0 J-0.0037
G1 X2.0723 Y1.9355
G1 X2.046 Y1.9103
G1 X2.0295 Y1.9252
G1 X2.0104 Y1.9425
G3 X2.0079 Y1.9435 I-0.0025 J-0.0028
G1 X1.9876
G1 X1.9672
G3 X1.9646 Y1.9424 I0.0 J-0.0037
G1 X1.9522 Y1.93
G1 X1.9398 Y1.9176
G3 X1.9387 Y1.9149 I0.0026 J-0.0026
G1 Y1.8932
G1 Y1.8715
G3 X1.9398 Y1.8689 I0.0037 J0.0
G1 X1.9522 Y1.8565
G1 X1.9646 Y1.8441
G3 X1.9672 Y1.843 I0.0026 J0.0026
G1 X1.9876
G1 X2.0079
G3 X2.0104 Y1.844 I0.0 J0.0037
G1 X2.0295 Y1.8612
G1 X2.046 Y1.8762
G1 X2.0723 Y1.851
G1 X2.1011 Y1.8234
G3 X2.1037 Y1.8224 I0.0026 J0.0027
G1 X2.1246
G1 X2.1455
G3 X2.1461 I0.0 J0.0037
G0 Z0.125
G0 X2.2029 Y1.957
G1 F20.0 Z-0.0045
G3 F40.0 X2.2043 Y1.9567 I0.0014 J0.0034
G1 X2.2266
G1 X2.2488
G3 X2.2515 Y1.9579 I0.0 J0.0037
G1 X2.274 Y1.9818
G1 X2.2964 Y2.0057
G3 X2.2975 Y2.0082 I-0.0027 J0.0025
G1 Y2.029
G1 Y2.0498
G3 X2.2963 Y2.0525 I-0.0037 J0.0
G1 X2.2724 Y2.075
G1 X2.2484 Y2.0975
G3 X2.2459 Y2.0985 I-0.0025 J-0.0027
G1 X2.2251
G1 X2.2043
G3 X2.2016 Y2.0973 I0.0 J-0.0037
G1 X2.1774 Y2.0715
G1 X2.1542 Y2.0468
G1 X2.0969
G1 X2.0397
G1 X2.0279 Y2.0609
G1 X2.0151 Y2.0764
G3 X2.0122 Y2.0778 I-0.0029 J-0.0024
G1 X1.9897
G1 X1.9672
G3 X1.9646 Y2.0767 I0.0 J-0.0037
G1 X1.9522 Y2.0643
G1 X1.9398 Y2.0519
G3 X1.9387 Y2.0493 I0.0026 J-0.0026
G1 Y2.0276
G1 Y2.0059
G3 X1.9398 Y2.0032 I0.0037 J0.0
G1 X1.9522 Y1.9908
G1 X1.9646 Y1.9784
G3 X1.9672 Y1.9774 I0.0026 J0.0026
G1 X1.9897
G1 X2.0122
G3 X2.0151 Y1.9787 I0.0 J0.0037
G1 X2.0279 Y1.9942
G1 X2.0397 Y2.0084
G1 X2.0969
G1 X2.1542
G1 X2.1774 Y1.9837
G1 X2.2016 Y1.9579
G3 X2.2029 Y1.957 I0.0027 J0.0025
G0 Z0.125
G0 X2.147 Y2.081
G1 F20.0 Z-0.0045
G3 F40.0 X2.1482 Y2.0819 I-0.0015 J0.0034
G1 X2.1706 Y2.1058
G1 X2.1931 Y2.1297
G3 X2.1941 Y2.1322 I-0.0027 J0.0025
G1 Y2.153
G1 Y2.1738
G3 X2.1929 Y2.1765 I-0.0037 J0.0
G1 X2.169 Y2.199
G1 X2.1451 Y2.2215
G3 X2.1426 Y2.2225 I-0.0025 J-0.0027
G1 X2.1231
G1 X2.1037
G3 X2.1011 Y2.2214 I0.0 J-0.0037
G1 X2.0723 Y2.1938
G1 X2.046 Y2.1686
G1 X2.0295 Y2.1836
G1 X2.0104 Y2.2008
G3 X2.0079 Y2.2018 I-0.0025 J-0.0028
G1 X1.9876
G1 X1.9672
G3 X1.9646 Y2.2007 I0.0 J-0.0037
G1 X1.9522 Y2.1883
G1 X1.9398 Y2.1759
G3 X1.9387 Y2.1733 I0.0026 J-0.0026
G1 Y2.1516
G1 Y2.1299
G3 X1.9398 Y2.1272 I0.0037 J0.0
G1 X1.9522 Y2.1148
G1 X1.9646 Y2.1024
G3 X1.9672 Y2.1014 I0.0026 J0.0026
G1 X1.9876
G1 X2.0079
G3 X2.0104 Y2.1023 I0.0 J0.0037
G1 X2.0295 Y2.1196
G1 X2.046 Y2.1345
G1 X2.0723 Y2.1093
G1 X2.1011 Y2.0817
G3 X2.1037 Y2.0807 I0.0026 J0.0027
G1 X2.1246
G1 X2.1455
G3 X2.147 Y2.081 I0.0 J0.0037
G0 Z0.125
G0 X2.2011 Y2.205
G1 F20.0 Z-0.0045
G3 F40.0 X2.2026 Y2.2047 I0.0015 J0.0034
G1 X2.2257
G1 X2.2488
G3 X2.2515 Y2.2059 I0.0 J0.0037
G1 X2.274 Y2.2298
G1 X2.2964 Y2.2537
G3 X2.2975 Y2.2562 I-0.0027 J0.0025
G1 Y2.2772
G1 Y2.2982
G3 X2.2962 Y2.301 I-0.0037 J0.0
G1 X2.2757 Y2.3196
G1 X2.2654 Y2.3305
G3 X2.2651 Y2.3307 I-0.0027 J-0.0026
G2 X2.2587 Y2.34 I0.0152 J0.0173
G1 X2.2561 Y2.3476
G1 Y2.3564
G1 X2.275 Y2.3682
G1 X2.2957 Y2.3811
G3 X2.2975 Y2.3842 I-0.002 J0.0032
G1 Y2.4079
G1 Y2.4316
G3 X2.2964 Y2.4342 I-0.0037 J0.0
G1 X2.284 Y2.4466
G1 X2.2716 Y2.459
G3 X2.2689 Y2.4601 I-0.0026 J-0.0026
G1 X2.2472
G1 X2.2255
G3 X2.2229 Y2.459 I0.0 J-0.0037
G1 X2.2105 Y2.4466
G1 X2.1981 Y2.4342
G3 X2.197 Y2.4316 I0.0026 J-0.0026
G1 Y2.4129
G3 Y2.4127 I0.0037 J0.0
G3 X2.1988 Y2.3999 I0.065 J0.0024
G3 X2.2033 Y2.3857 I0.1039 J0.0252
G3 X2.2034 Y2.3855 I0.0035 J0.0014
G3 X2.2096 Y2.3729 I0.2239 J0.103
G3 X2.2097 Y2.3727 I0.0033 J0.0017
G1 X2.2202 Y2.3559
G1 X2.1923 Y2.3314
G1 X2.1632 Y2.3058
G1 X2.1012 Y2.3055
G1 X2.0397 Y2.3051
G1 X2.0279 Y2.3193
G1 X2.0151 Y2.3348
G3 X2.0122 Y2.3361 I-0.0029 J-0.0024
G1 X1.9897
G1 X1.9672
G3 X1.9646 Y2.335 I0.0 J-0.0037
G1 X1.9522 Y2.3226
G1 X1.9398 Y2.3102
G3 X1.9387 Y2.3076 I0.0026 J-0.0026
G1 Y2.2859
G1 Y2.2642
G3 X1.9398 Y2.2616 I0.0037 J0.0
G1 X1.9522 Y2.2492
G1 X1.9646 Y2.2368
G3 X1.9672 Y2.2357 I0.0026 J0.0026
G1 X1.9897
G1 X2.0122
G3 X2.0151 Y2.237 I0.0 J0.0037
G1 X2.0279 Y2.2525
G1 X2.0397 Y2.2667
G1 X2.0942
G1 X2.1487
G1 X2.1736 Y2.237
G1 X2.1997 Y2.206
G3 X2.2011 Y2.205 I0.0028 J0.0024
G0 Z0.125
G0 X1.6361 Y2.1751
G1 F20.0 Z-0.0045
G3 F40.0 X1.6348 Y2.1777 I-0.0037 J-0.0002
G1 X1.6193 Y2.1906
G1 X1.6051 Y2.2024
G1 Y2.2187
G1 Y2.2351
G1 X1.6193 Y2.2469
G1 X1.6348 Y2.2597
G3 X1.6361 Y2.2626 I-0.0024 J0.0029
G1 Y2.2851
G1 Y2.3076
G3 X1.635 Y2.3102 I-0.0037 J0.0
G1 X1.6226 Y2.3226
G1 X1.6102 Y2.335
G3 X1.6076 Y2.3361 I-0.0026 J-0.0026
G1 X1.5859
G1 X1.5642
G3 X1.5616 Y2.335 I0.0 J-0.0037
G1 X1.5492 Y2.3226
G1 X1.5368 Y2.3102
G3 X1.5357 Y2.3076 I0.0026 J-0.0026
G1 Y2.2851
G1 Y2.2626
G3 X1.537 Y2.2597 I0.0037 J0.0
G1 X1.5525 Y2.2469
G1 X1.5667 Y2.2351
G1 Y2.2187
G1 Y2.2024
G1 X1.5525 Y2.1906
G1 X1.537 Y2.1777
G3 X1.5357 Y2.1749 I0.0024 J-0.0029
G1 Y2.1516
G1 Y2.1283
G3 X1.537 Y2.1254 I0.0037 J0.0
G1 X1.5525 Y2.1125
G3 X1.5527 Y2.1124 I0.0024 J0.0029
G2 X1.5596 Y2.1052 I-0.0161 J-0.0222
G1 X1.565 Y2.0963
G2 X1.5667 Y2.0899 I-0.017 J-0.0079
G2 X1.5646 Y2.083 I-0.0173 J0.0015
G3 X1.5643 Y2.0823 I0.0033 J-0.0018
G2 X1.5585 Y2.0733 I-0.0198 J0.0062
G3 X1.5583 Y2.073 I0.0025 J-0.0027
G1 X1.5489 Y2.0628
G1 X1.5312 Y2.0468
G1 X1.4856
G1 X1.4403
G1 X1.4286 Y2.0609
G1 X1.4157 Y2.0764
G3 X1.4129 Y2.0778 I-0.0029 J-0.0024
G1 X1.3904
G1 X1.3679
G3 X1.3652 Y2.0767 I0.0 J-0.0037
G1 X1.3528 Y2.0643
G1 X1.3404 Y2.0519
G3 X1.3393 Y2.0493 I0.0026 J-0.0026
G1 Y2.0276
G1 Y2.0059
G3 X1.3404 Y2.0032 I0.0037 J0.0
G1 X1.3528 Y1.9908
G1 X1.3652 Y1.9784
G3 X1.3679 Y1.9774 I0.0026 J0.0026
G1 X1.3904
G1 X1.4129
G3 X1.4157 Y1.9787 I0.0 J0.0037
G1 X1.4286 Y1.9942
G1 X1.4403 Y2.0084
G1 X1.4874
G1 X1.5345
G1 X1.5505 Y1.9907
G1 X1.5667 Y1.9728
G1 Y1.9583
G1 Y1.944
G1 X1.5525 Y1.9323
G1 X1.537 Y1.9194
G3 X1.5357 Y1.9165 I0.0024 J-0.0029
G1 Y1.894
G1 Y1.8715
G3 X1.5368 Y1.8689 I0.0037 J0.0
G1 X1.5492 Y1.8565
G1 X1.5616 Y1.8441
G3 X1.5642 Y1.843 I0.0026 J0.0026
G1 X1.5859
G1 X1.6076
G3 X1.6102 Y1.8441 I0.0 J0.0037
G1 X1.6226 Y1.8565
G1 X1.635 Y1.8689
G3 X1.6361 Y1.8715 I-0.0026 J0.0026
G1 Y1.894
G1 Y1.9165
G3 X1.6348 Y1.9194 I-0.0037 J0.0
G1 X1.6193 Y1.9323
G1 X1.6051 Y1.944
G1 Y1.9604
G1 Y1.9768
G1 X1.6193 Y1.9885
G1 X1.6348 Y2.0014
G3 X1.6361 Y2.0043 I-0.0024 J0.0029
G1 Y2.0276
G1 Y2.0509
G3 X1.6348 Y2.0537 I-0.0037 J0.0
G1 X1.6193 Y2.0666
G3 X1.6191 Y2.0667 I-0.0024 J-0.0029
G2 X1.6122 Y2.074 I0.0171 J0.023
G1 X1.6069 Y2.0829
G2 X1.6051 Y2.0899 I0.0338 J0.0123
G2 X1.6067 Y2.096 I0.0124 J0.0
G3 X1.6071 Y2.0968 I-0.0032 J0.0018
G2 X1.6117 Y2.1045 I0.0174 J-0.0052
G3 X1.6118 Y2.1046 I-0.0026 J0.0026
G1 X1.6194 Y2.1127
G1 X1.6348 Y2.1254
G3 X1.6361 Y2.1283 I-0.0024 J0.0029
G1 Y2.1516
G1 Y2.1749
G3 Y2.1751 I-0.0037 J0.0
G0 Z0.125
G0 X1.0367 Y2.05
G1 F20.0 Z-0.0045
G3 F40.0 X1.0357 Y2.0519 I-0.0036 J-0.0008
G1 X1.0233 Y2.0643
G1 X1.0109 Y2.0767
G3 X1.0083 Y2.0778 I-0.0026 J-0.0026
G1 X0.9858
G1 X0.9633
G3 X0.9604 Y2.0764 I0.0 J-0.0037
G1 X0.9475 Y2.0609
G1 X0.9358 Y2.0468
G1 X0.8887
G1 X0.8416
G1 X0.8256 Y2.0645
G3 X0.8253 Y2.0647 I-0.0028 J-0.0025
G2 X0.8175 Y2.0747 I0.024 J0.0269
G3 X0.8169 Y2.0756 I-0.0033 J-0.0017
G2 X0.8117 Y2.0847 I0.0154 J0.0149
G3 X0.8112 Y2.0856 I-0.0036 J-0.001
G2 X0.8095 Y2.0916 I0.01 J0.0062
G2 X0.8111 Y2.0972 I0.0148 J-0.0014
G3 X0.8114 Y2.0978 I-0.0033 J0.0018
G2 X0.8159 Y2.1047 I0.0148 J-0.0048
G3 X0.8161 Y2.1048 I-0.0025 J0.0028
G1 X0.8238 Y2.1127
G1 X0.8391 Y2.1254
G3 X0.8404 Y2.1283 I-0.0024 J0.0029
G1 Y2.1516
G1 Y2.1749
G3 X0.8391 Y2.1777 I-0.0037 J0.0
G1 X0.8236 Y2.1906
G1 X0.8095 Y2.2024
G1 Y2.2187
G1 Y2.2351
G1 X0.8236 Y2.2469
G1 X0.8391 Y2.2597
G3 X0.8404 Y2.2626 I-0.0024 J0.0029
G1 Y2.2851
G1 Y2.3076
G3 X0.8394 Y2.3102 I-0.0037 J0.0
G1 X0.827 Y2.3226
G1 X0.8146 Y2.335
G3 X0.8119 Y2.3361 I-0.0026 J-0.0026
G1 X0.7902
G1 X0.7685
G3 X0.7659 Y2.335 I0.0 J-0.0037
G1 X0.7535 Y2.3226
G1 X0.7411 Y2.3102
G3 X0.74 Y2.3076 I0.0026 J-0.0026
G1 Y2.2851
G1 Y2.2626
G3 X0.7414 Y2.2597 I0.0037 J0.0
G1 X0.7569 Y2.2469
G1 X0.771 Y2.2351
G1 Y2.2187
G1 Y2.2024
G1 X0.7569 Y2.1906
G1 X0.7414 Y2.1777
G3 X0.74 Y2.1749 I0.0024 J-0.0029
G1 Y2.1516
G1 Y2.1283
G3 X0.7414 Y2.1254 I0.0037 J0.0
G1 X0.7569 Y2.1125
G3 X0.757 Y2.1124 I0.0024 J0.0029
G2 X0.7639 Y2.1052 I-0.0172 J-0.0232
G1 X0.7692 Y2.0963
G2 X0.771 Y2.0893 I-0.0338 J-0.0123
G2 X0.7694 Y2.0831 I-0.0124 J0.0
G3 X0.769 Y2.0823 I0.0032 J-0.0018
G2 X0.7644 Y2.0746 I-0.0174 J0.0052
G3 X0.7643 I0.0026 J-0.0026
G1 X0.7567 Y2.0665
G1 X0.7414 Y2.0537
G3 X0.74 Y2.0509 I0.0024 J-0.0029
G1 Y2.0276
G1 Y2.0043
G3 X0.7414 Y2.0014 I0.0037 J0.0
G1 X0.7569 Y1.9885
G1 X0.771 Y1.9768
G1 Y1.9604
G1 Y1.944
G1 X0.7569 Y1.9323
G1 X0.7414 Y1.9194
G3 X0.74 Y1.9165 I0.0024 J-0.0029
G1 Y1.894
G1 Y1.8715
G3 X0.7411 Y1.8689 I0.0037 J0.0
G1 X0.7535 Y1.8565
G1 X0.7659 Y1.8441
G3 X0.7685 Y1.843 I0.0026 J0.0026
G1 X0.7902
G1 X0.8119
G3 X0.8146 Y1.8441 I0.0 J0.0037
G1 X0.827 Y1.8565
G1 X0.8394 Y1.8689
G3 X0.8404 Y1.8715 I-0.0026 J0.0026
G1 Y1.894
G1 Y1.9165
G3 X0.8391 Y1.9194 I-0.0037 J0.0
G1 X0.8236 Y1.9323
G1 X0.8095 Y1.944
G1 Y1.9601
G1 Y1.9762
G1 X0.8271 Y1.9922
G1 X0.845 Y2.0084
G1 X0.8905
G1 X0.9358
G1 X0.9475 Y1.9942
G1 X0.9604 Y1.9787
G3 X0.9633 Y1.9774 I0.0029 J0.0024
G1 X0.9858
G1 X1.0083
G3 X1.0109 Y1.9784 I0.0 J0.0037
G1 X1.0233 Y1.9908
G1 X1.0357 Y2.0032
G3 X1.0368 Y2.0059 I-0.0026 J0.0026
G1 Y2.0276
G1 Y2.0493
G3 X1.0367 Y2.05 I-0.0037 J0.0
G0 Z0.125
G0 X0.4375 Y2.0493
G1 F20.0 Z-0.0045
G3 F40.0 X0.4364 Y2.0519 I-0.0037 J0.0
G1 X0.424 Y2.0643
G1 X0.4116 Y2.0767
G3 X0.4089 Y2.0778 I-0.0026 J-0.0026
G1 X0.3864
G1 X0.3639
G3 X0.3611 Y2.0764 I0.0 J-0.0037
G1 X0.3482 Y2.0609
G1 X0.3365 Y2.0468
G1 X0.2689
G1 X0.2013
G1 X0.1781 Y2.0715
G1 X0.1538 Y2.0973
G3 X0.1511 Y2.0985 I-0.0027 J-0.0025
G1 X0.1289
G1 X0.1067
G3 X0.104 Y2.0973 I0.0 J-0.0037
G1 X0.0815 Y2.0734
G1 X0.059 Y2.0495
G3 X0.058 Y2.0469 I0.0027 J-0.0025
G1 Y2.0261
G1 Y2.0053
G3 X0.0592 Y2.0026 I0.0037 J0.0
G1 X0.0831 Y1.9802
G1 X0.107 Y1.9577
G3 X0.1096 Y1.9567 I0.0025 J0.0027
G1 X0.1303
G1 X0.1511
G3 X0.1538 Y1.9579 I0.0 J0.0037
G1 X0.1781 Y1.9837
G1 X0.2013 Y2.0084
G1 X0.2689
G1 X0.3365
G1 X0.3482 Y1.9942
G1 X0.3611 Y1.9787
G3 X0.3639 Y1.9774 I0.0029 J0.0024
G1 X0.3864
G1 X0.4089
G3 X0.4116 Y1.9784 I0.0 J0.0037
G1 X0.424 Y1.9908
G1 X0.4364 Y2.0032
G3 X0.4375 Y2.0059 I-0.0026 J0.0026
G1 Y2.0276
G1 Y2.0493
G0 Z0.125
G0 X0.4106 Y2.1018
G1 F20.0 Z-0.0045
G3 F40.0 X0.4116 Y2.1024 I-0.0017 J0.0033
G1 X0.424 Y2.1148
G1 X0.4364 Y2.1272
G3 X0.4375 Y2.1299 I-0.0026 J0.0026
G1 Y2.1516
G1 Y2.1733
G3 X0.4364 Y2.1759 I-0.0037 J0.0
G1 X0.424 Y2.1883
G1 X0.4116 Y2.2007
G3 X0.4089 Y2.2018 I-0.0026 J-0.0026
G1 X0.3864
G1 X0.3639
G3 X0.3611 Y2.2004 I0.0 J-0.0037
G1 X0.3482 Y2.1849
G1 X0.3365 Y2.1708
G1 X0.3206
G1 X0.3046
G1 X0.2814 Y2.1955
G1 X0.2572 Y2.2213
G3 X0.2545 Y2.2225 I-0.0027 J-0.0025
G1 X0.2322
G1 X0.21
G3 X0.2073 Y2.2213 I0.0 J-0.0037
G1 X0.1848 Y2.1974
G1 X0.1624 Y2.1735
G3 X0.1613 Y2.1709 I0.0027 J-0.0025
G1 Y2.1501
G1 Y2.1293
G3 X0.1625 Y2.1266 I0.0037 J0.0
G1 X0.1864 Y2.1042
G1 X0.2103 Y2.0817
G3 X0.2129 Y2.0807 I0.0025 J0.0027
G1 X0.2337
G1 X0.2545
G3 X0.2572 Y2.0819 I0.0 J0.0037
G1 X0.2814 Y2.1077
G1 X0.3046 Y2.1324
G1 X0.3206
G1 X0.3365
G1 X0.3482 Y2.1182
G1 X0.3611 Y2.1027
G3 X0.3639 Y2.1014 I0.0029 J0.0024
G1 X0.3864
G1 X0.4089
G3 X0.4106 Y2.1018 I0.0 J0.0037
G0 Z0.125
G0 X0.409 Y2.2357
G1 F20.0 Z-0.0045
G3 F40.0 X0.4116 Y2.2368 I0.0 J0.0037
G1 X0.424 Y2.2492
G1 X0.4364 Y2.2616
G3 X0.4375 Y2.2642 I-0.0026 J0.0026
G1 Y2.2859
G1 Y2.3076
G3 X0.4364 Y2.3102 I-0.0037 J0.0
G1 X0.424 Y2.3226
G1 X0.4116 Y2.335
G3 X0.4089 Y2.3361 I-0.0026 J-0.0026
G1 X0.3864
G1 X0.3639
G3 X0.3611 Y2.3348 I0.0 J-0.0037
G1 X0.3482 Y2.3193
G1 X0.3365 Y2.3051
G1 X0.2689
G1 X0.2013
G1 X0.1781 Y2.3298
G1 X0.1538 Y2.3556
G3 X0.1511 Y2.3568 I-0.0027 J-0.0025
G1 X0.1289
G1 X0.1067
G3 X0.104 Y2.3556 I0.0 J-0.0037
G1 X0.0815 Y2.3317
G1 X0.059 Y2.3078
G3 X0.058 Y2.3052 I0.0027 J-0.0025
G1 Y2.2845
G1 Y2.2637
G3 X0.0592 Y2.261 I0.0037 J0.0
G1 X0.0831 Y2.2385
G1 X0.107 Y2.216
G3 X0.1096 Y2.215 I0.0025 J0.0027
G1 X0.1303
G1 X0.1511
G3 X0.1538 Y2.2162 I0.0 J0.0037
G1 X0.1781 Y2.242
G1 X0.2013 Y2.2667
G1 X0.2689
G1 X0.3365
G1 X0.3482 Y2.2525
G1 X0.3611 Y2.237
G3 X0.3639 Y2.2357 I0.0029 J0.0024
G1 X0.3864
G1 X0.4089
G1 X0.409
G0 Z0.125
G0 X0.4089 Y1.9435
G1 F20.0 Z-0.0045
G1 F40.0 X0.3864
G1 X0.3639
G3 X0.3611 Y1.9421 I0.0 J-0.0037
G1 X0.3482 Y1.9266
G1 X0.3365 Y1.9125
G1 X0.3206
G1 X0.3046
G1 X0.2814 Y1.9371
G1 X0.2572 Y1.963
G3 X0.2545 Y1.9641 I-0.0027 J-0.0025
G1 X0.2322
G1 X0.21
G3 X0.2073 Y1.963 I0.0 J-0.0037
G1 X0.1848 Y1.939
G1 X0.1624 Y1.9151
G3 X0.1613 Y1.9126 I0.0027 J-0.0025
G1 Y1.8918
G1 Y1.871
G3 X0.1625 Y1.8683 I0.0037 J0.0
G1 X0.1864 Y1.8458
G1 X0.2103 Y1.8234
G3 X0.2129 Y1.8224 I0.0025 J0.0027
G1 X0.2337
G1 X0.2545
G3 X0.2572 Y1.8235 I0.0 J0.0037
G1 X0.2814 Y1.8494
G1 X0.3046 Y1.874
G1 X0.3206
G1 X0.3365
G1 X0.3482 Y1.8599
G1 X0.3611 Y1.8444
G3 X0.3639 Y1.843 I0.0029 J0.0024
G1 X0.3864
G1 X0.4089
G3 X0.4116 Y1.8441 I0.0 J0.0037
G1 X0.424 Y1.8565
G1 X0.4364 Y1.8689
G3 X0.4375 Y1.8715 I-0.0026 J0.0026
G1 Y1.8932
G1 Y1.9149
G3 X0.4364 Y1.9176 I-0.0037 J0.0
G1 X0.424 Y1.93
G1 X0.4116 Y1.9424
G3 X0.4089 Y1.9435 I-0.0026 J-0.0026
G0 Z0.125
G0 X0.2029 Y1.6952
G1 F20.0 Z-0.0045
G1 F40.0 X0.1881 Y1.7075
G3 X0.1849 Y1.7083 I-0.0024 J-0.0029
G1 X0.1549 Y1.7023
G1 X0.127 Y1.6967
G1 X0.1159 Y1.7101
G1 X0.1034 Y1.7251
G3 X0.1005 Y1.7265 I-0.0029 J-0.0024
G1 X0.0778
G1 X0.055
G3 X0.0523 Y1.7253 I0.0 J-0.0037
G1 X0.0298 Y1.7014
G1 X0.0074 Y1.6775
G3 X0.0063 Y1.6749 I0.0027 J-0.0025
G1 Y1.6541
G1 Y1.6333
G3 X0.0075 Y1.6306 I0.0037 J0.0
G1 X0.0314 Y1.6082
G1 X0.0553 Y1.5857
G3 X0.0579 Y1.5847 I0.0025 J0.0027
G1 X0.0792
G1 X0.1005
G3 X0.1034 Y1.586 I0.0 J0.0037
G1 X0.1159 Y1.6011
G1 X0.127 Y1.6144
G1 X0.1549 Y1.6089
G1 X0.1849 Y1.6029
G3 X0.1881 Y1.6036 I0.0007 J0.0036
G1 X0.2036 Y1.6165
G1 X0.2191 Y1.6294
G3 X0.2204 Y1.6323 I-0.0024 J0.0029
G1 Y1.6556
G1 Y1.6789
G3 X0.2191 Y1.6817 I-0.0037 J0.0
G1 X0.2036 Y1.6946
G1 X0.2029 Y1.6952
G0 Z0.125
G0 X0.101 Y0.8894
G1 F20.0 Z-0.0045
G3 F40.0 X0.1005 Y0.8895 I-0.0005 J-0.0037
G1 X0.0778
G1 X0.055
G3 X0.0523 Y0.8883 I0.0 J-0.0037
G1 X0.0298 Y0.8644
G1 X0.0074 Y0.8405
G3 X0.0063 Y0.8379 I0.0027 J-0.0025
G1 Y0.8171
G1 Y0.7963
G3 X0.0075 Y0.7936 I0.0037 J0.0
G1 X0.0314 Y0.7712
G1 X0.0553 Y0.7487
G3 X0.0579 Y0.7477 I0.0025 J0.0027
G1 X0.0792
G1 X0.1005
G3 X0.1034 Y0.749 I0.0 J0.0037
G1 X0.1159 Y0.7641
G1 X0.127 Y0.7774
G1 X0.1549 Y0.7719
G1 X0.1849 Y0.7659
G3 X0.1881 Y0.7666 I0.0007 J0.0036
G1 X0.2036 Y0.7795
G1 X0.2191 Y0.7924
G3 X0.2204 Y0.7953 I-0.0024 J0.0029
G1 Y0.8186
G1 Y0.8419
G3 X0.2191 Y0.8447 I-0.0037 J0.0
G1 X0.2036 Y0.8576
G1 X0.1881 Y0.8705
G3 X0.1849 Y0.8713 I-0.0024 J-0.0029
G1 X0.1549 Y0.8653
G1 X0.127 Y0.8597
G1 X0.1159 Y0.8731
G1 X0.1034 Y0.8881
G3 X0.101 Y0.8894 I-0.0029 J-0.0024
G0 Z0.125
G0 X0.2085 Y0.6515
G1 F20.0 Z-0.0045
G3 F40.0 X0.2073 Y0.6506 I0.0015 J-0.0034
G1 X0.1848 Y0.6267
G1 X0.1624 Y0.6028
G3 X0.1613 Y0.6002 I0.0027 J-0.0025
G1 Y0.5795
G1 Y0.5587
G3 X0.1625 Y0.556 I0.0037 J0.0
G1 X0.1864 Y0.5335
G1 X0.2103 Y0.511
G3 X0.2129 Y0.51 I0.0025 J0.0027
G1 X0.2337
G1 X0.2545
G3 X0.2572 Y0.5112 I0.0 J0.0037
G1 X0.2814 Y0.537
G1 X0.3046 Y0.5617
G1 X0.3206
G1 X0.3365
G1 X0.3482 Y0.5475
G1 X0.3611 Y0.532
G3 X0.3639 Y0.5307 I0.0029 J0.0024
G1 X0.3864
G1 X0.4089
G3 X0.4116 Y0.5318 I0.0 J0.0037
G1 X0.424 Y0.5442
G1 X0.4364 Y0.5566
G3 X0.4375 Y0.5592 I-0.0026 J0.0026
G1 Y0.5809
G1 Y0.6026
G3 X0.4364 Y0.6052 I-0.0037 J0.0
G1 X0.424 Y0.6176
G1 X0.4116 Y0.63
G3 X0.4089 Y0.6311 I-0.0026 J-0.0026
G1 X0.3864
G1 X0.3639
G3 X0.3611 Y0.6298 I0.0 J-0.0037
G1 X0.3482 Y0.6143
G1 X0.3365 Y0.6001
G1 X0.3206
G1 X0.3046
G1 X0.2814 Y0.6248
G1 X0.2572 Y0.6506
G3 X0.2545 Y0.6518 I-0.0027 J-0.0025
G1 X0.2322
G1 X0.21
G3 X0.2085 Y0.6515 I0.0 J-0.0037
G0 Z0.125
G0 X0.1526 Y0.5172
G1 F20.0 Z-0.0045
G3 F40.0 X0.1511 Y0.5175 I-0.0014 J-0.0034
G1 X0.1289
G1 X0.1067
G3 X0.104 Y0.5163 I0.0 J-0.0037
G1 X0.0815 Y0.4924
G1 X0.059 Y0.4685
G3 X0.058 Y0.4659 I0.0027 J-0.0025
G1 Y0.4451
G1 Y0.4243
G3 X0.0592 Y0.4216 I0.0037 J0.0
G1 X0.0831 Y0.3992
G1 X0.107 Y0.3767
G3 X0.1096 Y0.3757 I0.0025 J0.0027
G1 X0.1303
G1 X0.1511
G3 X0.1538 Y0.3769 I0.0 J0.0037
G1 X0.1781 Y0.4027
G1 X0.2013 Y0.4274
G1 X0.2689
G1 X0.3365
G1 X0.3482 Y0.4132
G1 X0.3611 Y0.3977
G3 X0.3639 Y0.3964 I0.0029 J0.0024
G1 X0.3864
G1 X0.4089
G3 X0.4116 Y0.3974 I0.0 J0.0037
G1 X0.424 Y0.4098
G1 X0.4364 Y0.4222
G3 X0.4375 Y0.4249 I-0.0026 J0.0026
G1 Y0.4466
G1 Y0.4683
G3 X0.4364 Y0.4709 I-0.0037 J0.0
G1 X0.424 Y0.4833
G1 X0.4116 Y0.4957
G3 X0.4089 Y0.4968 I-0.0026 J-0.0026
G1 X0.3864
G1 X0.3639
G3 X0.3611 Y0.4954 I0.0 J-0.0037
G1 X0.3482 Y0.4799
G1 X0.3365 Y0.4658
G1 X0.2689
G1 X0.2013
G1 X0.1781 Y0.4905
G1 X0.1538 Y0.5163
G3 X0.1526 Y0.5172 I-0.0027 J-0.0025
G0 Z0.125
G0 X0.2085 Y0.3931
G1 F20.0 Z-0.0045
G3 F40.0 X0.2073 Y0.3923 I0.0015 J-0.0034
G1 X0.1848 Y0.3684
G1 X0.1624 Y0.3445
G3 X0.1613 Y0.3419 I0.0027 J-0.0025
G1 Y0.3211
G1 Y0.3003
G3 X0.1625 Y0.2976 I0.0037 J0.0
G1 X0.1864 Y0.2752
G1 X0.2103 Y0.2527
G3 X0.2129 Y0.2517 I0.0025 J0.0027
G1 X0.2337
G1 X0.2545
G3 X0.2572 Y0.2529 I0.0 J0.0037
G1 X0.2814 Y0.2787
G1 X0.3046 Y0.3034
G1 X0.3206
G1 X0.3365
G1 X0.3482 Y0.2892
G1 X0.3611 Y0.2737
G3 X0.3639 Y0.2724 I0.0029 J0.0024
G1 X0.3864
G1 X0.4089
G3 X0.4116 Y0.2734 I0.0 J0.0037
G1 X0.424 Y0.2858
G1 X0.4364 Y0.2982
G3 X0.4375 Y0.3009 I-0.0026 J0.0026
G1 Y0.3226
G1 Y0.3443
G3 X0.4364 Y0.3469 I-0.0037 J0.0
G1 X0.424 Y0.3593
G1 X0.4116 Y0.3717
G3 X0.4089 Y0.3728 I-0.0026 J-0.0026
G1 X0.3864
G1 X0.3639
G3 X0.3611 Y0.3714 I0.0 J-0.0037
G1 X0.3482 Y0.3559
G1 X0.3365 Y0.3418
G1 X0.3206
G1 X0.3046
G1 X0.2814 Y0.3665
G1 X0.2572 Y0.3923
G3 X0.2545 Y0.3935 I-0.0027 J-0.0025
G1 X0.2322
G1 X0.21
G3 X0.2085 Y0.3931 I0.0 J-0.0037
G0 Z0.125
G0 X0.1526 Y0.2588
G1 F20.0 Z-0.0045
G3 F40.0 X0.1511 Y0.2591 I-0.0014 J-0.0034
G1 X0.1289
G1 X0.1067
G3 X0.104 Y0.258 I0.0 J-0.0037
G1 X0.0815 Y0.234
G1 X0.059 Y0.2101
G3 X0.058 Y0.2076 I0.0027 J-0.0025
G1 Y0.1868
G1 Y0.166
G3 X0.0592 Y0.1633 I0.0037 J0.0
G1 X0.0831 Y0.1408
G1 X0.107 Y0.1184
G3 X0.1096 Y0.1174 I0.0025 J0.0027
G1 X0.1303
G1 X0.1511
G3 X0.1538 Y0.1185 I0.0 J0.0037
G1 X0.1781 Y0.1444
G1 X0.2013 Y0.169
G1 X0.2689
G1 X0.3365
G1 X0.3482 Y0.1549
G1 X0.3611 Y0.1394
G3 X0.3639 Y0.138 I0.0029 J0.0024
G1 X0.3864
G1 X0.4089
G3 X0.4116 Y0.1391 I0.0 J0.0037
G1 X0.424 Y0.1515
G1 X0.4364 Y0.1639
G3 X0.4375 Y0.1665 I-0.0026 J0.0026
G1 Y0.1882
G1 Y0.2099
G3 X0.4364 Y0.2126 I-0.0037 J0.0
G1 X0.424 Y0.225
G1 X0.4116 Y0.2374
G3 X0.4089 Y0.2385 I-0.0026 J-0.0026
G1 X0.3864
G1 X0.3639
G3 X0.3611 Y0.2371 I0.0 J-0.0037
G1 X0.3482 Y0.2216
G1 X0.3365 Y0.2075
G1 X0.2689
G1 X0.2013
G1 X0.1781 Y0.2321
G1 X0.1538 Y0.258
G3 X0.1526 Y0.2588 I-0.0027 J-0.0025
G0 Z0.125
G0 X0.74 Y0.299
G1 F20.0 Z-0.0045
G3 F40.0 X0.7414 Y0.2964 I0.0037 J0.0003
G1 X0.7569 Y0.2835
G1 X0.771 Y0.2718
G1 Y0.2554
G1 Y0.239
G1 X0.7569 Y0.2273
G1 X0.7414 Y0.2144
G3 X0.74 Y0.2115 I0.0024 J-0.0029
G1 Y0.189
G1 Y0.1665
G3 X0.7411 Y0.1639 I0.0037 J0.0
G1 X0.7535 Y0.1515
G1 X0.7659 Y0.1391
G3 X0.7685 Y0.138 I0.0026 J0.0026
G1 X0.7902
G1 X0.8119
G3 X0.8146 Y0.1391 I0.0 J0.0037
G1 X0.827 Y0.1515
G1 X0.8394 Y0.1639
G3 X0.8404 Y0.1665 I-0.0026 J0.0026
G1 Y0.189
G1 Y0.2115
G3 X0.8391 Y0.2144 I-0.0037 J0.0
G1 X0.8236 Y0.2273
G1 X0.8095 Y0.239
G1 Y0.2554
G1 Y0.2718
G1 X0.8236 Y0.2835
G1 X0.8391 Y0.2964
G3 X0.8404 Y0.2993 I-0.0024 J0.0029
G1 Y0.3226
G1 Y0.3459
G3 X0.8391 Y0.3487 I-0.0037 J0.0
G1 X0.8236 Y0.3616
G3 X0.8234 Y0.3618 I-0.0024 J-0.0029
G2 X0.8166 Y0.3689 I0.0161 J0.0222
G1 X0.8111 Y0.3779
G2 X0.8095 Y0.3842 I0.017 J0.0079
G2 X0.8116 Y0.3911 I0.0173 J-0.0015
G3 X0.8119 Y0.3918 I-0.0033 J0.0018
G2 X0.8176 Y0.4009 I0.0198 J-0.0062
G3 X0.8178 Y0.4011 I-0.0025 J0.0027
G1 X0.8272 Y0.4113
G1 X0.845 Y0.4274
G1 X0.8905
G1 X0.9358
G1 X0.9475 Y0.4132
G1 X0.9604 Y0.3977
G3 X0.9633 Y0.3964 I0.0029 J0.0024
G1 X0.9858
G1 X1.0083
G3 X1.0109 Y0.3974 I0.0 J0.0037
G1 X1.0233 Y0.4098
G1 X1.0357 Y0.4222
G3 X1.0368 Y0.4249 I-0.0026 J0.0026
G1 Y0.4466
G1 Y0.4683
G3 X1.0357 Y0.4709 I-0.0037 J0.0
G1 X1.0233 Y0.4833
G1 X1.0109 Y0.4957
G3 X1.0083 Y0.4968 I-0.0026 J-0.0026
G1 X0.9858
G1 X0.9633
G3 X0.9604 Y0.4954 I0.0 J-0.0037
G1 X0.9475 Y0.4799
G1 X0.9358 Y0.4658
G1 X0.8887
G1 X0.8416
G1 X0.8256 Y0.4835
G1 X0.8095 Y0.5013
G1 Y0.5159
G1 Y0.5301
G1 X0.8236 Y0.5419
G1 X0.8391 Y0.5547
G3 X0.8404 Y0.5576 I-0.0024 J0.0029
G1 Y0.5801
G1 Y0.6026
G3 X0.8394 Y0.6052 I-0.0037 J0.0
G1 X0.827 Y0.6176
G1 X0.8146 Y0.63
G3 X0.8119 Y0.6311 I-0.0026 J-0.0026
G1 X0.7902
G1 X0.7685
G3 X0.7659 Y0.63 I0.0 J-0.0037
G1 X0.7535 Y0.6176
G1 X0.7411 Y0.6052
G3 X0.74 Y0.6026 I0.0026 J-0.0026
G1 Y0.5801
G1 Y0.5576
G3 X0.7414 Y0.5547 I0.0037 J0.0
G1 X0.7569 Y0.5419
G1 X0.771 Y0.5301
G1 Y0.5137
G1 Y0.4973
G1 X0.7569 Y0.4856
G1 X0.7414 Y0.4727
G3 X0.74 Y0.4699 I0.0024 J-0.0029
G1 Y0.4466
G1 Y0.4233
G3 X0.7414 Y0.4204 I0.0037 J0.0
G1 X0.7569 Y0.4075
G3 X0.757 Y0.4074 I0.0024 J0.0029
G2 X0.7639 Y0.4002 I-0.0173 J-0.0233
G1 X0.7692 Y0.3913
G2 X0.771 Y0.3843 I-0.0338 J-0.0123
G2 X0.7694 Y0.3781 I-0.0124 J0.0
G3 X0.769 Y0.3773 I0.0032 J-0.0018
G2 X0.7644 Y0.3696 I-0.0174 J0.0052
G3 X0.7643 I0.0026 J-0.0026
G1 X0.7567 Y0.3615
G1 X0.7414 Y0.3487
G3 X0.74 Y0.3459 I0.0024 J-0.0029
G1 Y0.3226
G1 Y0.2993
G3 Y0.299 I0.0037 J0.0
G0 Z0.125
M5
M30
